(G-CODE GENERATED BY FLATCAM v8.994 - www.flatcam.org - Version Date: 2020/11/7)

(Name: copper_top.gbr_iso_combined_cnc)
(Type: G-code from Geometry)
(Units: MM)

(Created on Tuesday, 24 September 2024 at 18:37)

(This preprocessor is the default preprocessor used by FlatCAM.)
(It is made to work with MACH3 compatible motion controllers.)

(TOOL DIAMETER: 0.1214 mm)
(Feedrate_XY: 40.0 mm/min)
(Feedrate_Z: 25.0 mm/min)
(Feedrate rapids 1500.0 mm/min)

(Z_Cut: -0.0399 mm)
(Z_Move: 1.0 mm)
(Z Start: None mm)
(Z End: 15.0 mm)
(X,Y End: None mm)
(Steps per circle: 64)
(Preprocessor Geometry: default)

(X range:   -0.1878 ...   34.1878  mm)
(Y range:   -0.1878 ...   32.1878  mm)

(Spindle Speed: 1000.0 RPM)
G21
G90
G94

G01 F40.00

M5
G00 Z15.0000
G00 X0.0000 Y0.0000
T2
M6    
(MSG, Change to Tool Dia = 0.1214)
M0
G00 Z15.0000

M03 S1000.0
G01 F40.00
G00 X9.3541 Y11.0925
G01 F25.00
G01 Z-0.0399
G01 F40.00
G01 X9.3581 Y11.0969
G01 X9.3617 Y11.1017
G01 X9.3647 Y11.1068
G01 X9.3673 Y11.1122
G01 X9.3693 Y11.1178
G01 X9.3707 Y11.1236
G01 X9.3719 Y11.1339
G01 X9.3719 Y11.7246
G01 X9.3710 Y11.7350
G01 X9.3697 Y11.7408
G01 X9.3678 Y11.7464
G01 X9.3654 Y11.7519
G01 X9.3617 Y11.7583
G01 X9.3581 Y11.7631
G01 X9.3541 Y11.7675
G01 X8.9375 Y12.1841
G01 X8.9295 Y12.1908
G01 X8.9245 Y12.1940
G01 X8.9192 Y12.1967
G01 X8.9122 Y12.1993
G01 X8.9064 Y12.2007
G01 X8.9005 Y12.2016
G01 X8.8946 Y12.2019
G01 X8.3054 Y12.2019
G01 X8.2995 Y12.2016
G01 X8.2936 Y12.2007
G01 X8.2878 Y12.1993
G01 X8.2822 Y12.1973
G01 X8.2768 Y12.1947
G01 X8.2717 Y12.1917
G01 X8.2669 Y12.1881
G01 X8.2625 Y12.1841
G01 X7.8459 Y11.7675
G01 X7.8392 Y11.7595
G01 X7.8360 Y11.7545
G01 X7.8333 Y11.7492
G01 X7.8312 Y11.7436
G01 X7.8296 Y11.7379
G01 X7.8286 Y11.7320
G01 X7.8281 Y11.7246
G01 X7.8281 Y11.1354
G01 X7.8284 Y11.1295
G01 X7.8296 Y11.1221
G01 X7.8316 Y11.1150
G01 X7.8353 Y11.1068
G01 X7.8400 Y11.0993
G01 X7.8448 Y11.0936
G01 X8.0310 Y10.9073
G01 X8.0310 Y8.9759
G01 X8.0170 Y8.9629
G01 X7.9657 Y8.9064
G01 X7.9619 Y8.9018
G01 X7.9156 Y8.8393
G01 X7.8734 Y8.7687
G01 X7.8396 Y8.6970
G01 X7.8124 Y8.6209
G01 X7.7927 Y8.5426
G01 X7.7810 Y8.4642
G01 X7.7769 Y8.3820
G01 X7.7769 Y6.8580
G01 X7.7809 Y6.7773
G01 X7.7927 Y6.6974
G01 X7.8116 Y6.6219
G01 X7.8133 Y6.6162
G01 X7.8385 Y6.5458
G01 X7.8408 Y6.5403
G01 X7.8741 Y6.4700
G01 X7.9156 Y6.4007
G01 X7.9637 Y6.3358
G01 X8.0159 Y6.2782
G01 X8.0202 Y6.2739
G01 X8.0756 Y6.2237
G01 X8.0802 Y6.2199
G01 X8.1427 Y6.1736
G01 X8.2120 Y6.1321
G01 X8.2850 Y6.0976
G01 X8.3582 Y6.0713
G01 X8.3639 Y6.0696
G01 X8.4409 Y6.0505
G01 X8.5193 Y6.0389
G01 X8.6000 Y6.0349
G01 X8.6807 Y6.0389
G01 X8.7606 Y6.0507
G01 X8.8389 Y6.0704
G01 X8.9150 Y6.0976
G01 X8.9880 Y6.1321
G01 X9.0573 Y6.1736
G01 X9.1222 Y6.2217
G01 X9.1820 Y6.2760
G01 X9.2363 Y6.3358
G01 X9.2844 Y6.4007
G01 X9.3259 Y6.4700
G01 X9.3604 Y6.5430
G01 X9.3876 Y6.6191
G01 X9.4075 Y6.6989
G01 X9.4191 Y6.7773
G01 X9.4231 Y6.8580
G01 X9.4231 Y8.3820
G01 X9.4191 Y8.4627
G01 X9.4073 Y8.5426
G01 X9.3876 Y8.6209
G01 X9.3604 Y8.6970
G01 X9.3272 Y8.7673
G01 X9.3244 Y8.7726
G01 X9.2844 Y8.8393
G01 X9.2381 Y8.9018
G01 X9.2343 Y8.9064
G01 X9.1830 Y8.9629
G01 X9.1690 Y8.9759
G01 X9.1690 Y10.9073
G01 X9.3541 Y11.0925
G00 Z1.0000
G00 X9.4280 Y15.9410
G01 F25.00
G01 Z-0.0399
G01 F40.00
G01 X9.4694 Y15.9104
G01 X9.5301 Y15.8740
G01 X9.5940 Y15.8438
G01 X9.6621 Y15.8195
G01 X9.7293 Y15.8028
G01 X9.7993 Y15.7924
G01 X9.8700 Y15.7889
G01 X9.9422 Y15.7925
G01 X10.0107 Y15.8028
G01 X10.0793 Y15.8200
G01 X10.1460 Y15.8438
G01 X10.2099 Y15.8740
G01 X10.2706 Y15.9104
G01 X10.3275 Y15.9526
G01 X10.3799 Y16.0001
G01 X10.4283 Y16.0537
G01 X10.4696 Y16.1094
G01 X10.5060 Y16.1701
G01 X10.5362 Y16.2340
G01 X10.5600 Y16.3007
G01 X10.5772 Y16.3693
G01 X10.5876 Y16.4393
G01 X10.5911 Y16.5100
G01 X10.5876 Y16.5807
G01 X10.5772 Y16.6507
G01 X10.5600 Y16.7193
G01 X10.5362 Y16.7860
G01 X10.5060 Y16.8499
G01 X10.4696 Y16.9106
G01 X10.4274 Y16.9675
G01 X10.3799 Y17.0199
G01 X10.3263 Y17.0683
G01 X10.2706 Y17.1096
G01 X10.2099 Y17.1460
G01 X10.1460 Y17.1762
G01 X10.0822 Y17.1991
G01 X10.0765 Y17.2008
G01 X10.0136 Y17.2166
G01 X10.0077 Y17.2178
G01 X9.9407 Y17.2276
G01 X9.8700 Y17.2311
G01 X9.7993 Y17.2276
G01 X9.7323 Y17.2178
G01 X9.7264 Y17.2166
G01 X9.6635 Y17.2008
G01 X9.6578 Y17.1991
G01 X9.5940 Y17.1762
G01 X9.5301 Y17.1460
G01 X9.4694 Y17.1096
G01 X9.4280 Y17.0790
G01 X3.5170 Y17.0789
G01 X3.4642 Y17.0762
G01 X3.4119 Y17.0685
G01 X3.4061 Y17.0674
G01 X3.3548 Y17.0545
G01 X3.3023 Y17.0356
G01 X3.2545 Y17.0131
G01 X3.2492 Y17.0103
G01 X3.2039 Y16.9831
G01 X3.1614 Y16.9516
G01 X3.1568 Y16.9479
G01 X3.1177 Y16.9123
G01 X3.0802 Y16.8709
G01 X3.0486 Y16.8285
G01 X3.0453 Y16.8236
G01 X3.0182 Y16.7782
G01 X2.9949 Y16.7291
G01 X2.9755 Y16.6752
G01 X2.9620 Y16.6210
G01 X2.9538 Y16.5658
G01 X2.9510 Y16.5100
G01 X2.9511 Y2.5385
G01 X2.9536 Y2.4872
G01 X2.9542 Y2.4813
G01 X2.9620 Y2.4290
G01 X2.9748 Y2.3777
G01 X2.9765 Y2.3720
G01 X2.9944 Y2.3223
G01 X3.0182 Y2.2718
G01 X3.0453 Y2.2264
G01 X3.0486 Y2.2215
G01 X3.0802 Y2.1791
G01 X3.1156 Y2.1398
G01 X3.1198 Y2.1356
G01 X3.1591 Y2.1002
G01 X3.2015 Y2.0686
G01 X3.2064 Y2.0653
G01 X3.2518 Y2.0382
G01 X3.2995 Y2.0156
G01 X3.3051 Y2.0133
G01 X3.3548 Y1.9955
G01 X3.4090 Y1.9820
G01 X3.4613 Y1.9742
G01 X3.4672 Y1.9736
G01 X3.5200 Y1.9710
G01 X31.4600 Y1.9710
G01 X31.5158 Y1.9738
G01 X31.5681 Y1.9815
G01 X31.5739 Y1.9826
G01 X31.6252 Y1.9955
G01 X31.6749 Y2.0133
G01 X31.6805 Y2.0156
G01 X31.7282 Y2.0382
G01 X31.7736 Y2.0653
G01 X31.7785 Y2.0686
G01 X31.8209 Y2.1002
G01 X31.8602 Y2.1356
G01 X31.8644 Y2.1398
G01 X31.8998 Y2.1791
G01 X31.9314 Y2.2215
G01 X31.9347 Y2.2264
G01 X31.9618 Y2.2718
G01 X31.9844 Y2.3195
G01 X31.9867 Y2.3251
G01 X32.0045 Y2.3748
G01 X32.0180 Y2.4290
G01 X32.0258 Y2.4813
G01 X32.0264 Y2.4872
G01 X32.0290 Y2.5400
G01 X32.0290 Y12.7000
G01 X32.0262 Y12.7558
G01 X32.0180 Y12.8110
G01 X32.0052 Y12.8623
G01 X32.0035 Y12.8680
G01 X31.9856 Y12.9177
G01 X31.9631 Y12.9655
G01 X31.9603 Y12.9708
G01 X31.9331 Y13.0161
G01 X31.9016 Y13.0586
G01 X31.8979 Y13.0632
G01 X31.8623 Y13.1023
G01 X31.8232 Y13.1379
G01 X31.8186 Y13.1416
G01 X31.7761 Y13.1731
G01 X31.7308 Y13.2003
G01 X31.7255 Y13.2031
G01 X31.6777 Y13.2256
G01 X31.6252 Y13.2445
G01 X31.5739 Y13.2574
G01 X31.5681 Y13.2585
G01 X31.5158 Y13.2662
G01 X31.4615 Y13.2689
G01 X30.2759 Y13.2690
G01 X30.2629 Y13.2830
G01 X30.2053 Y13.3353
G01 X30.1405 Y13.3835
G01 X30.0700 Y13.4259
G01 X29.9983 Y13.4598
G01 X29.9209 Y13.4876
G01 X29.8426 Y13.5073
G01 X29.7627 Y13.5191
G01 X29.6835 Y13.5231
G01 X28.1565 Y13.5231
G01 X28.0773 Y13.5191
G01 X27.9974 Y13.5073
G01 X27.9191 Y13.4876
G01 X27.8444 Y13.4610
G01 X27.7727 Y13.4272
G01 X27.7674 Y13.4244
G01 X27.7007 Y13.3844
G01 X27.6358 Y13.3363
G01 X27.5760 Y13.2820
G01 X27.5237 Y13.2244
G01 X27.5199 Y13.2198
G01 X27.4753 Y13.1597
G01 X27.4720 Y13.1548
G01 X27.4321 Y13.0880
G01 X27.3976 Y13.0150
G01 X27.3704 Y12.9389
G01 X27.3514 Y12.8635
G01 X27.3502 Y12.8576
G01 X27.3392 Y12.7836
G01 X27.3387 Y12.7777
G01 X27.3349 Y12.7000
G01 X27.3390 Y12.6178
G01 X27.3507 Y12.5394
G01 X27.3704 Y12.4611
G01 X27.3976 Y12.3850
G01 X27.4308 Y12.3147
G01 X27.4336 Y12.3094
G01 X27.4720 Y12.2452
G01 X27.4753 Y12.2403
G01 X27.5217 Y12.1778
G01 X27.5760 Y12.1180
G01 X27.6358 Y12.0637
G01 X27.6983 Y12.0173
G01 X27.7032 Y12.0140
G01 X27.7674 Y11.9756
G01 X27.7727 Y11.9728
G01 X27.8430 Y11.9396
G01 X27.9191 Y11.9124
G01 X27.9974 Y11.8927
G01 X28.0744 Y11.8812
G01 X28.0803 Y11.8807
G01 X28.1580 Y11.8769
G01 X29.6820 Y11.8769
G01 X29.7627 Y11.8809
G01 X29.8426 Y11.8927
G01 X29.9209 Y11.9124
G01 X29.9970 Y11.9396
G01 X30.0673 Y11.9728
G01 X30.0726 Y11.9756
G01 X30.1393 Y12.0156
G01 X30.2018 Y12.0619
G01 X30.2064 Y12.0657
G01 X30.2629 Y12.1170
G01 X30.2759 Y12.1310
G01 X30.8910 Y12.1310
G01 X30.8910 Y3.1090
G01 X4.0890 Y3.1090
G01 X4.0890 Y15.9410
G01 X9.4280 Y15.9410
G00 Z1.0000
G00 X11.8410 Y16.0680
G01 F25.00
G01 Z-0.0399
G01 F40.00
G01 X11.8410 Y14.5390
G01 X6.0570 Y14.5389
G01 X6.0042 Y14.5362
G01 X5.9519 Y14.5285
G01 X5.9461 Y14.5274
G01 X5.8948 Y14.5145
G01 X5.8451 Y14.4967
G01 X5.8395 Y14.4944
G01 X5.7918 Y14.4718
G01 X5.7464 Y14.4447
G01 X5.7415 Y14.4414
G01 X5.6991 Y14.4098
G01 X5.6598 Y14.3744
G01 X5.6556 Y14.3702
G01 X5.6202 Y14.3309
G01 X5.5886 Y14.2885
G01 X5.5853 Y14.2836
G01 X5.5582 Y14.2382
G01 X5.5344 Y14.1877
G01 X5.5165 Y14.1380
G01 X5.5148 Y14.1323
G01 X5.5020 Y14.0810
G01 X5.4942 Y14.0287
G01 X5.4936 Y14.0228
G01 X5.4911 Y13.9715
G01 X5.4910 Y8.9759
G01 X5.4770 Y8.9629
G01 X5.4257 Y8.9064
G01 X5.4219 Y8.9018
G01 X5.3756 Y8.8393
G01 X5.3334 Y8.7687
G01 X5.2996 Y8.6970
G01 X5.2724 Y8.6209
G01 X5.2527 Y8.5426
G01 X5.2410 Y8.4642
G01 X5.2369 Y8.3820
G01 X5.2369 Y6.8565
G01 X5.2409 Y6.7773
G01 X5.2527 Y6.6974
G01 X5.2724 Y6.6191
G01 X5.3002 Y6.5417
G01 X5.3341 Y6.4700
G01 X5.3765 Y6.3995
G01 X5.4247 Y6.3347
G01 X5.4770 Y6.2771
G01 X5.4910 Y6.2641
G01 X5.4910 Y5.0800
G01 X5.4938 Y5.0242
G01 X5.5015 Y4.9719
G01 X5.5026 Y4.9661
G01 X5.5148 Y4.9177
G01 X5.5165 Y4.9120
G01 X5.5344 Y4.8623
G01 X5.5569 Y4.8145
G01 X5.5597 Y4.8092
G01 X5.5869 Y4.7639
G01 X5.6184 Y4.7214
G01 X5.6221 Y4.7168
G01 X5.6577 Y4.6777
G01 X5.6991 Y4.6402
G01 X5.7439 Y4.6069
G01 X5.7918 Y4.5782
G01 X5.8395 Y4.5556
G01 X5.8451 Y4.5533
G01 X5.8948 Y4.5355
G01 X5.9461 Y4.5226
G01 X5.9519 Y4.5215
G01 X6.0042 Y4.5138
G01 X6.0600 Y4.5110
G01 X25.1100 Y4.5110
G01 X25.1658 Y4.5138
G01 X25.2225 Y4.5223
G01 X25.2752 Y4.5355
G01 X25.3249 Y4.5533
G01 X25.3305 Y4.5556
G01 X25.3755 Y4.5769
G01 X25.3808 Y4.5797
G01 X25.4261 Y4.6069
G01 X25.4709 Y4.6402
G01 X25.5123 Y4.6777
G01 X25.5479 Y4.7168
G01 X25.5516 Y4.7214
G01 X25.5814 Y4.7615
G01 X25.5847 Y4.7664
G01 X25.6118 Y4.8118
G01 X25.6356 Y4.8623
G01 X25.6535 Y4.9120
G01 X25.6552 Y4.9177
G01 X25.6680 Y4.9690
G01 X25.6762 Y5.0242
G01 X25.6790 Y5.0800
G01 X25.6790 Y9.5910
G01 X27.5641 Y9.5910
G01 X27.5771 Y9.5770
G01 X27.6336 Y9.5257
G01 X27.6382 Y9.5219
G01 X27.7007 Y9.4756
G01 X27.7713 Y9.4334
G01 X27.8430 Y9.3996
G01 X27.9191 Y9.3724
G01 X27.9974 Y9.3527
G01 X28.0758 Y9.3410
G01 X28.1580 Y9.3369
G01 X29.6820 Y9.3369
G01 X29.7612 Y9.3408
G01 X29.8396 Y9.3522
G01 X29.8455 Y9.3534
G01 X29.9209 Y9.3724
G01 X29.9970 Y9.3996
G01 X30.0700 Y9.4341
G01 X30.1368 Y9.4740
G01 X30.1417 Y9.4773
G01 X30.2042 Y9.5237
G01 X30.2640 Y9.5780
G01 X30.3163 Y9.6356
G01 X30.3201 Y9.6402
G01 X30.3664 Y9.7027
G01 X30.4064 Y9.7694
G01 X30.4092 Y9.7747
G01 X30.4424 Y9.8450
G01 X30.4692 Y9.9197
G01 X30.4893 Y9.9994
G01 X30.5011 Y10.0793
G01 X30.5051 Y10.1600
G01 X30.5013 Y10.2377
G01 X30.5008 Y10.2436
G01 X30.4898 Y10.3176
G01 X30.4886 Y10.3235
G01 X30.4696 Y10.3989
G01 X30.4435 Y10.4722
G01 X30.4412 Y10.4777
G01 X30.4079 Y10.5480
G01 X30.3680 Y10.6148
G01 X30.3647 Y10.6197
G01 X30.3183 Y10.6822
G01 X30.2640 Y10.7420
G01 X30.2042 Y10.7963
G01 X30.1393 Y10.8444
G01 X30.0700 Y10.8859
G01 X29.9970 Y10.9204
G01 X29.9209 Y10.9476
G01 X29.8411 Y10.9675
G01 X29.7627 Y10.9791
G01 X29.6820 Y10.9831
G01 X28.1580 Y10.9831
G01 X28.0773 Y10.9791
G01 X27.9974 Y10.9673
G01 X27.9191 Y10.9476
G01 X27.8430 Y10.9204
G01 X27.7727 Y10.8872
G01 X27.7674 Y10.8844
G01 X27.7007 Y10.8444
G01 X27.6382 Y10.7981
G01 X27.6336 Y10.7943
G01 X27.5771 Y10.7430
G01 X27.5641 Y10.7290
G01 X25.5608 Y10.7290
G01 X25.4243 Y10.8654
G01 X25.4185 Y10.8700
G01 X25.4108 Y10.8746
G01 X25.4026 Y10.8780
G01 X25.3939 Y10.8802
G01 X25.3835 Y10.8811
G01 X24.8350 Y10.8811
G01 X24.8261 Y10.8802
G01 X24.8174 Y10.8780
G01 X24.8092 Y10.8746
G01 X24.8015 Y10.8700
G01 X24.7935 Y10.8633
G01 X24.4056 Y10.4754
G01 X24.4017 Y10.4709
G01 X24.3983 Y10.4660
G01 X24.3935 Y10.4568
G01 X24.3904 Y10.4468
G01 X24.3890 Y10.4365
G01 X24.3889 Y9.8865
G01 X24.3892 Y9.8805
G01 X24.3901 Y9.8746
G01 X24.3920 Y9.8674
G01 X24.3954 Y9.8592
G01 X24.4000 Y9.8515
G01 X24.4046 Y9.8457
G01 X24.5410 Y9.7092
G01 X24.5410 Y5.6490
G01 X6.6290 Y5.6490
G01 X6.6290 Y6.2641
G01 X6.6430 Y6.2771
G01 X6.6943 Y6.3336
G01 X6.6981 Y6.3382
G01 X6.7444 Y6.4007
G01 X6.7844 Y6.4674
G01 X6.7872 Y6.4727
G01 X6.8204 Y6.5430
G01 X6.8476 Y6.6191
G01 X6.8673 Y6.6974
G01 X6.8791 Y6.7773
G01 X6.8831 Y6.8580
G01 X6.8831 Y8.3820
G01 X6.8791 Y8.4627
G01 X6.8673 Y8.5426
G01 X6.8476 Y8.6209
G01 X6.8204 Y8.6970
G01 X6.7859 Y8.7700
G01 X6.7435 Y8.8405
G01 X6.6953 Y8.9053
G01 X6.6430 Y8.9629
G01 X6.6290 Y8.9759
G01 X6.6290 Y13.4010
G01 X12.4115 Y13.4011
G01 X12.4658 Y13.4038
G01 X12.5210 Y13.4120
G01 X12.5752 Y13.4255
G01 X12.6249 Y13.4433
G01 X12.6305 Y13.4456
G01 X12.6755 Y13.4669
G01 X12.6808 Y13.4697
G01 X12.7261 Y13.4969
G01 X12.7686 Y13.5284
G01 X12.7732 Y13.5321
G01 X12.8123 Y13.5677
G01 X12.8498 Y13.6091
G01 X12.8831 Y13.6539
G01 X12.9118 Y13.7018
G01 X12.9356 Y13.7523
G01 X12.9545 Y13.8048
G01 X12.9680 Y13.8590
G01 X12.9761 Y13.9128
G01 X12.9790 Y13.9700
G01 X12.9790 Y16.0680
G01 X13.0096 Y16.1094
G01 X13.0460 Y16.1701
G01 X13.0762 Y16.2340
G01 X13.0991 Y16.2978
G01 X13.1008 Y16.3035
G01 X13.1166 Y16.3664
G01 X13.1178 Y16.3723
G01 X13.1276 Y16.4393
G01 X13.1311 Y16.5085
G01 X13.1276 Y16.5807
G01 X13.1178 Y16.6477
G01 X13.1166 Y16.6536
G01 X13.0996 Y16.7207
G01 X13.0762 Y16.7860
G01 X13.0460 Y16.8499
G01 X13.0096 Y16.9106
G01 X12.9790 Y16.9520
G01 X12.9790 Y19.0500
G01 X12.9762 Y19.1058
G01 X12.9680 Y19.1610
G01 X12.9545 Y19.2152
G01 X12.9356 Y19.2677
G01 X12.9131 Y19.3155
G01 X12.9103 Y19.3208
G01 X12.8847 Y19.3636
G01 X12.8814 Y19.3685
G01 X12.8498 Y19.4109
G01 X12.8123 Y19.4523
G01 X12.7709 Y19.4898
G01 X12.7261 Y19.5231
G01 X12.6782 Y19.5518
G01 X12.6305 Y19.5744
G01 X12.6249 Y19.5767
G01 X12.5780 Y19.5935
G01 X12.5723 Y19.5952
G01 X12.5210 Y19.6080
G01 X12.4687 Y19.6158
G01 X12.4628 Y19.6164
G01 X12.4100 Y19.6190
G01 X7.4159 Y19.6190
G01 X7.4029 Y19.6330
G01 X7.3453 Y19.6853
G01 X7.2805 Y19.7335
G01 X7.2100 Y19.7759
G01 X7.1370 Y19.8104
G01 X7.0609 Y19.8376
G01 X6.9826 Y19.8573
G01 X6.9027 Y19.8691
G01 X6.8220 Y19.8731
G01 X5.2980 Y19.8731
G01 X5.2173 Y19.8691
G01 X5.1374 Y19.8573
G01 X5.0591 Y19.8376
G01 X4.9830 Y19.8104
G01 X4.9127 Y19.7772
G01 X4.9074 Y19.7744
G01 X4.8407 Y19.7344
G01 X4.7782 Y19.6881
G01 X4.7736 Y19.6843
G01 X4.7171 Y19.6330
G01 X4.7041 Y19.6190
G01 X4.0890 Y19.6190
G01 X4.0890 Y28.6410
G01 X16.9210 Y28.6410
G01 X16.9210 Y28.0259
G01 X16.9070 Y28.0129
G01 X16.8557 Y27.9564
G01 X16.8519 Y27.9518
G01 X16.8056 Y27.8893
G01 X16.7656 Y27.8226
G01 X16.7628 Y27.8173
G01 X16.7296 Y27.7470
G01 X16.7024 Y27.6709
G01 X16.6827 Y27.5926
G01 X16.6709 Y27.5127
G01 X16.6669 Y27.4320
G01 X16.6669 Y25.9080
G01 X16.6707 Y25.8303
G01 X16.6712 Y25.8244
G01 X16.6827 Y25.7474
G01 X16.7024 Y25.6691
G01 X16.7296 Y25.5930
G01 X16.7628 Y25.5227
G01 X16.7656 Y25.5174
G01 X16.8040 Y25.4532
G01 X16.8073 Y25.4483
G01 X16.8537 Y25.3858
G01 X16.9080 Y25.3260
G01 X16.9678 Y25.2717
G01 X17.0327 Y25.2236
G01 X17.1020 Y25.1821
G01 X17.1723 Y25.1488
G01 X17.1778 Y25.1465
G01 X17.2482 Y25.1213
G01 X17.2539 Y25.1196
G01 X17.3294 Y25.1007
G01 X17.4108 Y25.0888
G01 X17.4900 Y25.0849
G01 X17.5677 Y25.0887
G01 X17.5736 Y25.0892
G01 X17.6476 Y25.1002
G01 X17.6535 Y25.1014
G01 X17.7289 Y25.1204
G01 X17.8050 Y25.1476
G01 X17.8780 Y25.1821
G01 X17.9448 Y25.2220
G01 X17.9497 Y25.2253
G01 X18.0098 Y25.2699
G01 X18.0144 Y25.2737
G01 X18.0720 Y25.3260
G01 X18.1263 Y25.3858
G01 X18.1744 Y25.4507
G01 X18.2144 Y25.5174
G01 X18.2172 Y25.5227
G01 X18.2492 Y25.5903
G01 X18.2515 Y25.5958
G01 X18.2776 Y25.6691
G01 X18.2973 Y25.7474
G01 X18.3091 Y25.8273
G01 X18.3131 Y25.9065
G01 X18.3131 Y27.4320
G01 X18.3093 Y27.5097
G01 X18.3088 Y27.5156
G01 X18.2973 Y27.5926
G01 X18.2776 Y27.6709
G01 X18.2504 Y27.7470
G01 X18.2166 Y27.8187
G01 X18.1744 Y27.8893
G01 X18.1281 Y27.9518
G01 X18.1243 Y27.9564
G01 X18.0730 Y28.0129
G01 X18.0590 Y28.0259
G01 X18.0589 Y29.2115
G01 X18.0562 Y29.2658
G01 X18.0485 Y29.3181
G01 X18.0474 Y29.3239
G01 X18.0340 Y29.3766
G01 X18.0156 Y29.4277
G01 X17.9931 Y29.4755
G01 X17.9903 Y29.4808
G01 X17.9631 Y29.5261
G01 X17.9316 Y29.5686
G01 X17.9279 Y29.5732
G01 X17.8923 Y29.6123
G01 X17.8509 Y29.6498
G01 X17.8061 Y29.6831
G01 X17.7608 Y29.7103
G01 X17.7555 Y29.7131
G01 X17.7077 Y29.7356
G01 X17.6580 Y29.7535
G01 X17.6523 Y29.7552
G01 X17.6010 Y29.7680
G01 X17.5487 Y29.7758
G01 X17.5428 Y29.7764
G01 X17.4900 Y29.7790
G01 X3.5200 Y29.7790
G01 X3.4672 Y29.7764
G01 X3.4613 Y29.7758
G01 X3.4090 Y29.7680
G01 X3.3548 Y29.7545
G01 X3.3051 Y29.7367
G01 X3.2995 Y29.7344
G01 X3.2518 Y29.7118
G01 X3.2052 Y29.6839
G01 X3.1591 Y29.6498
G01 X3.1198 Y29.6144
G01 X3.1156 Y29.6102
G01 X3.0802 Y29.5709
G01 X3.0486 Y29.5285
G01 X3.0453 Y29.5236
G01 X3.0182 Y29.4782
G01 X2.9944 Y29.4277
G01 X2.9765 Y29.3780
G01 X2.9748 Y29.3723
G01 X2.9620 Y29.3210
G01 X2.9542 Y29.2687
G01 X2.9536 Y29.2628
G01 X2.9511 Y29.2115
G01 X2.9510 Y19.0500
G01 X2.9536 Y18.9972
G01 X2.9542 Y18.9913
G01 X2.9620 Y18.9390
G01 X2.9755 Y18.8848
G01 X2.9933 Y18.8351
G01 X2.9956 Y18.8295
G01 X3.0182 Y18.7818
G01 X3.0461 Y18.7352
G01 X3.0802 Y18.6891
G01 X3.1177 Y18.6477
G01 X3.1591 Y18.6102
G01 X3.2039 Y18.5769
G01 X3.2518 Y18.5482
G01 X3.3023 Y18.5244
G01 X3.3548 Y18.5055
G01 X3.4075 Y18.4923
G01 X3.4642 Y18.4838
G01 X3.5200 Y18.4810
G01 X4.7041 Y18.4810
G01 X4.7171 Y18.4670
G01 X4.7747 Y18.4147
G01 X4.8395 Y18.3665
G01 X4.9100 Y18.3241
G01 X4.9817 Y18.2902
G01 X5.0591 Y18.2624
G01 X5.1374 Y18.2427
G01 X5.2173 Y18.2309
G01 X5.2965 Y18.2269
G01 X6.8220 Y18.2269
G01 X6.9042 Y18.2310
G01 X6.9826 Y18.2427
G01 X7.0609 Y18.2624
G01 X7.1370 Y18.2896
G01 X7.2087 Y18.3234
G01 X7.2793 Y18.3656
G01 X7.3418 Y18.4119
G01 X7.3464 Y18.4157
G01 X7.4029 Y18.4670
G01 X7.4159 Y18.4810
G01 X11.8410 Y18.4810
G01 X11.8410 Y16.9520
G01 X11.8104 Y16.9106
G01 X11.7740 Y16.8499
G01 X11.7438 Y16.7860
G01 X11.7209 Y16.7222
G01 X11.7192 Y16.7165
G01 X11.7034 Y16.6536
G01 X11.7022 Y16.6477
G01 X11.6924 Y16.5807
G01 X11.6889 Y16.5100
G01 X11.6924 Y16.4393
G01 X11.7022 Y16.3723
G01 X11.7034 Y16.3664
G01 X11.7192 Y16.3035
G01 X11.7209 Y16.2978
G01 X11.7438 Y16.2340
G01 X11.7740 Y16.1701
G01 X11.8104 Y16.1094
G01 X11.8410 Y16.0680
G00 Z1.0000
G00 X14.3810 Y16.0680
G01 F25.00
G01 Z-0.0399
G01 F40.00
G01 X14.3810 Y14.4208
G01 X14.2446 Y14.2843
G01 X14.2391 Y14.2773
G01 X14.2354 Y14.2708
G01 X14.2324 Y14.2640
G01 X14.2301 Y14.2554
G01 X14.2292 Y14.2495
G01 X14.2289 Y14.2435
G01 X14.2289 Y13.6965
G01 X14.2298 Y13.6861
G01 X14.2324 Y13.6760
G01 X14.2368 Y13.6665
G01 X14.2400 Y13.6615
G01 X14.2436 Y13.6568
G01 X14.3810 Y13.5192
G01 X14.3810 Y10.6827
G01 X14.1948 Y10.4964
G01 X14.1900 Y10.4907
G01 X14.1860 Y10.4845
G01 X14.1827 Y10.4778
G01 X14.1799 Y10.4693
G01 X14.1786 Y10.4620
G01 X14.1781 Y10.4546
G01 X14.1781 Y9.8654
G01 X14.1786 Y9.8580
G01 X14.1803 Y9.8492
G01 X14.1839 Y9.8395
G01 X14.1883 Y9.8317
G01 X14.1948 Y9.8236
G01 X14.6125 Y9.4059
G01 X14.6205 Y9.3992
G01 X14.6255 Y9.3960
G01 X14.6308 Y9.3933
G01 X14.6378 Y9.3907
G01 X14.6436 Y9.3893
G01 X14.6495 Y9.3884
G01 X14.6554 Y9.3881
G01 X15.2446 Y9.3881
G01 X15.2520 Y9.3886
G01 X15.2608 Y9.3903
G01 X15.2705 Y9.3939
G01 X15.2783 Y9.3983
G01 X15.2864 Y9.4048
G01 X15.7041 Y9.8225
G01 X15.7108 Y9.8305
G01 X15.7140 Y9.8355
G01 X15.7167 Y9.8408
G01 X15.7188 Y9.8464
G01 X15.7204 Y9.8521
G01 X15.7214 Y9.8580
G01 X15.7219 Y9.8639
G01 X15.7219 Y10.4546
G01 X15.7214 Y10.4620
G01 X15.7201 Y10.4693
G01 X15.7173 Y10.4778
G01 X15.7140 Y10.4845
G01 X15.7100 Y10.4907
G01 X15.7052 Y10.4964
G01 X15.5190 Y10.6827
G01 X15.5190 Y13.5192
G01 X15.6554 Y13.6557
G01 X15.6600 Y13.6615
G01 X15.6646 Y13.6692
G01 X15.6676 Y13.6760
G01 X15.6699 Y13.6846
G01 X15.6708 Y13.6905
G01 X15.6711 Y13.6965
G01 X15.6711 Y14.2435
G01 X15.6702 Y14.2539
G01 X15.6676 Y14.2640
G01 X15.6632 Y14.2735
G01 X15.6600 Y14.2785
G01 X15.6564 Y14.2832
G01 X15.5190 Y14.4208
G01 X15.5190 Y16.0680
G01 X15.5496 Y16.1094
G01 X15.5860 Y16.1701
G01 X15.6162 Y16.2340
G01 X15.6391 Y16.2978
G01 X15.6408 Y16.3035
G01 X15.6566 Y16.3664
G01 X15.6578 Y16.3723
G01 X15.6676 Y16.4393
G01 X15.6711 Y16.5100
G01 X15.6676 Y16.5807
G01 X15.6578 Y16.6477
G01 X15.6566 Y16.6536
G01 X15.6408 Y16.7165
G01 X15.6391 Y16.7222
G01 X15.6162 Y16.7860
G01 X15.5860 Y16.8499
G01 X15.5496 Y16.9106
G01 X15.5083 Y16.9663
G01 X15.4599 Y17.0199
G01 X15.4075 Y17.0674
G01 X15.3506 Y17.1096
G01 X15.2899 Y17.1460
G01 X15.2260 Y17.1762
G01 X15.1593 Y17.2000
G01 X15.0907 Y17.2172
G01 X15.0207 Y17.2276
G01 X14.9500 Y17.2311
G01 X14.8793 Y17.2276
G01 X14.8093 Y17.2172
G01 X14.7407 Y17.2000
G01 X14.6740 Y17.1762
G01 X14.6101 Y17.1460
G01 X14.5494 Y17.1096
G01 X14.4937 Y17.0683
G01 X14.4401 Y17.0199
G01 X14.3926 Y16.9675
G01 X14.3504 Y16.9106
G01 X14.3140 Y16.8499
G01 X14.2838 Y16.7860
G01 X14.2600 Y16.7193
G01 X14.2428 Y16.6507
G01 X14.2325 Y16.5822
G01 X14.2289 Y16.5100
G01 X14.2324 Y16.4393
G01 X14.2428 Y16.3693
G01 X14.2595 Y16.3021
G01 X14.2838 Y16.2340
G01 X14.3140 Y16.1701
G01 X14.3504 Y16.1094
G01 X14.3810 Y16.0680
G00 Z1.0000
G00 X16.7690 Y16.5130
G01 F25.00
G01 Z-0.0399
G01 F40.00
G01 X16.7690 Y16.5070
G01 X16.7724 Y16.4393
G01 X16.7828 Y16.3693
G01 X16.8000 Y16.3007
G01 X16.8238 Y16.2340
G01 X16.8540 Y16.1701
G01 X16.8904 Y16.1094
G01 X16.9326 Y16.0525
G01 X16.9801 Y16.0001
G01 X17.0325 Y15.9526
G01 X17.0894 Y15.9104
G01 X17.1501 Y15.8740
G01 X17.2140 Y15.8438
G01 X17.2807 Y15.8200
G01 X17.3493 Y15.8028
G01 X17.4193 Y15.7924
G01 X17.4900 Y15.7889
G01 X17.5607 Y15.7924
G01 X17.6307 Y15.8028
G01 X17.6993 Y15.8200
G01 X17.7660 Y15.8438
G01 X17.8299 Y15.8740
G01 X17.8906 Y15.9104
G01 X17.9475 Y15.9526
G01 X17.9999 Y16.0001
G01 X18.0474 Y16.0525
G01 X18.0896 Y16.1094
G01 X18.1260 Y16.1701
G01 X18.1562 Y16.2340
G01 X18.1800 Y16.3007
G01 X18.1972 Y16.3693
G01 X18.2076 Y16.4393
G01 X18.2111 Y16.5100
G01 X18.2076 Y16.5807
G01 X18.1972 Y16.6507
G01 X18.1800 Y16.7193
G01 X18.1562 Y16.7860
G01 X18.1260 Y16.8499
G01 X18.0896 Y16.9106
G01 X18.0474 Y16.9675
G01 X17.9999 Y17.0199
G01 X17.9475 Y17.0674
G01 X17.8906 Y17.1096
G01 X17.8299 Y17.1460
G01 X17.7660 Y17.1762
G01 X17.6993 Y17.2000
G01 X17.6307 Y17.2172
G01 X17.5607 Y17.2276
G01 X17.4900 Y17.2311
G01 X17.4193 Y17.2276
G01 X17.3493 Y17.2172
G01 X17.2807 Y17.2000
G01 X17.2140 Y17.1762
G01 X17.1501 Y17.1460
G01 X17.0894 Y17.1096
G01 X17.0325 Y17.0674
G01 X16.9801 Y17.0199
G01 X16.9326 Y16.9675
G01 X16.8904 Y16.9106
G01 X16.8540 Y16.8499
G01 X16.8238 Y16.7860
G01 X16.8000 Y16.7193
G01 X16.7828 Y16.6507
G01 X16.7724 Y16.5807
G01 X16.7690 Y16.5130
G00 Z1.0000
G00 X23.3241 Y17.4425
G01 F25.00
G01 Z-0.0399
G01 F40.00
G01 X23.3308 Y17.4505
G01 X23.3340 Y17.4555
G01 X23.3367 Y17.4608
G01 X23.3388 Y17.4664
G01 X23.3404 Y17.4721
G01 X23.3414 Y17.4780
G01 X23.3419 Y17.4839
G01 X23.3419 Y18.0746
G01 X23.3416 Y18.0805
G01 X23.3407 Y18.0864
G01 X23.3378 Y18.0964
G01 X23.3347 Y18.1032
G01 X23.3317 Y18.1083
G01 X23.3281 Y18.1131
G01 X23.3241 Y18.1175
G01 X22.9075 Y18.5341
G01 X22.9031 Y18.5381
G01 X22.8983 Y18.5417
G01 X22.8892 Y18.5467
G01 X22.8822 Y18.5493
G01 X22.8764 Y18.5507
G01 X22.8705 Y18.5516
G01 X22.8646 Y18.5519
G01 X22.2754 Y18.5519
G01 X22.2695 Y18.5516
G01 X22.2636 Y18.5507
G01 X22.2578 Y18.5493
G01 X22.2522 Y18.5473
G01 X22.2468 Y18.5447
G01 X22.2417 Y18.5417
G01 X22.2369 Y18.5381
G01 X22.2325 Y18.5341
G01 X21.8159 Y18.1175
G01 X21.8119 Y18.1131
G01 X21.8083 Y18.1083
G01 X21.8033 Y18.0992
G01 X21.8007 Y18.0922
G01 X21.7993 Y18.0864
G01 X21.7984 Y18.0805
G01 X21.7981 Y18.0746
G01 X21.7981 Y17.4854
G01 X21.7984 Y17.4795
G01 X21.7996 Y17.4721
G01 X21.8022 Y17.4636
G01 X21.8053 Y17.4568
G01 X21.8092 Y17.4505
G01 X21.8148 Y17.4436
G01 X22.0010 Y17.2573
G01 X22.0010 Y10.6108
G01 X21.8646 Y10.4743
G01 X21.8591 Y10.4673
G01 X21.8554 Y10.4608
G01 X21.8520 Y10.4526
G01 X21.8501 Y10.4454
G01 X21.8492 Y10.4395
G01 X21.8489 Y10.4335
G01 X21.8489 Y9.8865
G01 X21.8498 Y9.8761
G01 X21.8511 Y9.8703
G01 X21.8530 Y9.8646
G01 X21.8575 Y9.8552
G01 X21.8636 Y9.8468
G01 X22.0010 Y9.7092
G01 X22.0010 Y8.1890
G01 X19.3290 Y8.1890
G01 X19.3290 Y9.6373
G01 X19.5152 Y9.8236
G01 X19.5200 Y9.8293
G01 X19.5240 Y9.8355
G01 X19.5278 Y9.8436
G01 X19.5301 Y9.8507
G01 X19.5314 Y9.8580
G01 X19.5319 Y9.8654
G01 X19.5319 Y10.4546
G01 X19.5312 Y10.4635
G01 X19.5293 Y10.4722
G01 X19.5267 Y10.4792
G01 X19.5233 Y10.4858
G01 X19.5191 Y10.4919
G01 X19.5141 Y10.4975
G01 X19.0975 Y10.9141
G01 X19.0895 Y10.9208
G01 X19.0845 Y10.9240
G01 X19.0792 Y10.9267
G01 X19.0722 Y10.9293
G01 X19.0664 Y10.9307
G01 X19.0605 Y10.9316
G01 X19.0546 Y10.9319
G01 X18.4654 Y10.9319
G01 X18.4595 Y10.9316
G01 X18.4536 Y10.9307
G01 X18.4478 Y10.9293
G01 X18.4422 Y10.9273
G01 X18.4368 Y10.9247
G01 X18.4317 Y10.9217
G01 X18.4269 Y10.9181
G01 X18.4225 Y10.9141
G01 X18.0048 Y10.4964
G01 X17.9983 Y10.4883
G01 X17.9939 Y10.4805
G01 X17.9903 Y10.4708
G01 X17.9884 Y10.4605
G01 X17.9881 Y10.4546
G01 X17.9881 Y9.8654
G01 X17.9886 Y9.8580
G01 X17.9899 Y9.8507
G01 X17.9922 Y9.8436
G01 X17.9960 Y9.8355
G01 X18.0000 Y9.8293
G01 X18.0048 Y9.8236
G01 X18.1910 Y9.6373
G01 X18.1910 Y8.1890
G01 X12.9790 Y8.1890
G01 X12.9790 Y10.9073
G01 X13.1652 Y11.0936
G01 X13.1700 Y11.0993
G01 X13.1747 Y11.1068
G01 X13.1778 Y11.1136
G01 X13.1801 Y11.1207
G01 X13.1814 Y11.1280
G01 X13.1819 Y11.1354
G01 X13.1819 Y11.7246
G01 X13.1814 Y11.7320
G01 X13.1804 Y11.7379
G01 X13.1778 Y11.7464
G01 X13.1747 Y11.7532
G01 X13.1700 Y11.7607
G01 X13.1641 Y11.7675
G01 X12.7475 Y12.1841
G01 X12.7395 Y12.1908
G01 X12.7345 Y12.1940
G01 X12.7292 Y12.1967
G01 X12.7222 Y12.1993
G01 X12.7164 Y12.2007
G01 X12.7105 Y12.2016
G01 X12.7046 Y12.2019
G01 X12.1154 Y12.2019
G01 X12.1095 Y12.2016
G01 X12.0992 Y12.1997
G01 X12.0895 Y12.1961
G01 X12.0817 Y12.1917
G01 X12.0736 Y12.1852
G01 X11.6559 Y11.7675
G01 X11.6519 Y11.7631
G01 X11.6483 Y11.7583
G01 X11.6453 Y11.7532
G01 X11.6427 Y11.7478
G01 X11.6407 Y11.7422
G01 X11.6393 Y11.7364
G01 X11.6381 Y11.7261
G01 X11.6381 Y11.1354
G01 X11.6386 Y11.1280
G01 X11.6399 Y11.1207
G01 X11.6422 Y11.1136
G01 X11.6453 Y11.1068
G01 X11.6500 Y11.0993
G01 X11.6548 Y11.0936
G01 X11.8410 Y10.9073
G01 X11.8411 Y7.6185
G01 X11.8438 Y7.5642
G01 X11.8520 Y7.5090
G01 X11.8655 Y7.4548
G01 X11.8833 Y7.4051
G01 X11.8856 Y7.3995
G01 X11.9069 Y7.3545
G01 X11.9097 Y7.3492
G01 X11.9369 Y7.3039
G01 X11.9684 Y7.2614
G01 X11.9721 Y7.2568
G01 X12.0077 Y7.2177
G01 X12.0468 Y7.1821
G01 X12.0514 Y7.1784
G01 X12.0939 Y7.1469
G01 X12.1392 Y7.1197
G01 X12.1445 Y7.1169
G01 X12.1895 Y7.0956
G01 X12.1951 Y7.0933
G01 X12.2448 Y7.0755
G01 X12.2990 Y7.0620
G01 X12.3542 Y7.0538
G01 X12.4100 Y7.0510
G01 X22.5715 Y7.0511
G01 X22.6258 Y7.0538
G01 X22.6810 Y7.0620
G01 X22.7352 Y7.0755
G01 X22.7849 Y7.0933
G01 X22.7905 Y7.0956
G01 X22.8355 Y7.1169
G01 X22.8408 Y7.1197
G01 X22.8861 Y7.1469
G01 X22.9286 Y7.1784
G01 X22.9332 Y7.1821
G01 X22.9723 Y7.2177
G01 X23.0098 Y7.2591
G01 X23.0431 Y7.3039
G01 X23.0718 Y7.3518
G01 X23.0956 Y7.4023
G01 X23.1145 Y7.4548
G01 X23.1280 Y7.5090
G01 X23.1361 Y7.5628
G01 X23.1390 Y7.6200
G01 X23.1390 Y9.7092
G01 X23.2764 Y9.8468
G01 X23.2825 Y9.8552
G01 X23.2870 Y9.8646
G01 X23.2899 Y9.8746
G01 X23.2910 Y9.8835
G01 X23.2911 Y10.4335
G01 X23.2908 Y10.4395
G01 X23.2899 Y10.4454
G01 X23.2880 Y10.4526
G01 X23.2846 Y10.4608
G01 X23.2800 Y10.4685
G01 X23.2754 Y10.4743
G01 X23.1390 Y10.6108
G01 X23.1390 Y17.2573
G01 X23.3241 Y17.4425
G00 Z1.0000
G00 X27.1998 Y24.5615
G01 F25.00
G01 Z-0.0399
G01 F40.00
G01 X27.2101 Y24.5358
G01 X27.2150 Y24.5257
G01 X27.2210 Y24.5161
G01 X27.2258 Y24.5097
G01 X27.2312 Y24.5036
G01 X27.2361 Y24.4987
G01 X27.2418 Y24.4938
G01 X27.2487 Y24.4887
G01 X27.2545 Y24.4851
G01 X27.2615 Y24.4813
G01 X27.2682 Y24.4782
G01 X27.2751 Y24.4757
G01 X27.2830 Y24.4734
G01 X27.2897 Y24.4719
G01 X27.2975 Y24.4708
G01 X27.3056 Y24.4703
G01 X27.3126 Y24.4703
G01 X27.3207 Y24.4708
G01 X27.3285 Y24.4719
G01 X27.3353 Y24.4734
G01 X27.3431 Y24.4757
G01 X27.3564 Y24.4811
G01 X27.3640 Y24.4853
G01 X27.3700 Y24.4891
G01 X27.3817 Y24.4984
G01 X27.3875 Y24.5041
G01 X27.3924 Y24.5097
G01 X27.3990 Y24.5187
G01 X27.4031 Y24.5254
G01 X27.4065 Y24.5320
G01 X27.4188 Y24.5625
G01 X27.4309 Y24.5881
G01 X27.4409 Y24.6106
G01 X27.4594 Y24.6565
G01 X27.4677 Y24.6795
G01 X27.4755 Y24.7031
G01 X27.4828 Y24.7267
G01 X27.4895 Y24.7504
G01 X27.4956 Y24.7743
G01 X27.5011 Y24.7982
G01 X27.5061 Y24.8227
G01 X27.5106 Y24.8473
G01 X27.5144 Y24.8713
G01 X27.5175 Y24.8957
G01 X27.5202 Y24.9202
G01 X27.5235 Y24.9661
G01 X27.1998 Y24.5615
G00 Z1.0000
G00 X27.0947 Y25.0719
G01 F25.00
G01 Z-0.0399
G01 F40.00
G01 X27.4183 Y25.4765
G01 X27.4065 Y25.5060
G01 X27.4013 Y25.5157
G01 X27.3952 Y25.5247
G01 X27.3875 Y25.5339
G01 X27.3793 Y25.5417
G01 X27.3700 Y25.5489
G01 X27.3603 Y25.5548
G01 X27.3536 Y25.5582
G01 X27.3431 Y25.5623
G01 X27.3320 Y25.5654
G01 X27.3207 Y25.5672
G01 X27.3091 Y25.5678
G01 X27.2975 Y25.5672
G01 X27.2864 Y25.5654
G01 X27.2788 Y25.5635
G01 X27.2682 Y25.5598
G01 X27.2580 Y25.5549
G01 X27.2487 Y25.5493
G01 X27.2418 Y25.5442
G01 X27.2338 Y25.5371
G01 X27.2258 Y25.5283
G01 X27.2193 Y25.5194
G01 X27.2150 Y25.5123
G01 X27.2101 Y25.5022
G01 X27.1995 Y25.4759
G01 X27.1873 Y25.4499
G01 X27.1773 Y25.4274
G01 X27.1588 Y25.3815
G01 X27.1505 Y25.3585
G01 X27.1427 Y25.3349
G01 X27.1354 Y25.3113
G01 X27.1287 Y25.2876
G01 X27.1226 Y25.2637
G01 X27.1171 Y25.2398
G01 X27.1121 Y25.2153
G01 X27.1076 Y25.1907
G01 X27.1038 Y25.1667
G01 X27.1007 Y25.1423
G01 X27.0980 Y25.1178
G01 X27.0947 Y25.0719
G00 Z1.0000
G00 X26.6924 Y25.0190
G01 F25.00
G01 Z-0.0399
G01 F40.00
G01 X26.6928 Y24.9862
G01 X26.6939 Y24.9525
G01 X26.6959 Y24.9178
G01 X26.6986 Y24.8849
G01 X26.7024 Y24.8495
G01 X26.7066 Y24.8168
G01 X26.7128 Y24.7776
G01 X26.7188 Y24.7451
G01 X26.7257 Y24.7115
G01 X26.7334 Y24.6781
G01 X26.7419 Y24.6448
G01 X26.7513 Y24.6116
G01 X26.7614 Y24.5791
G01 X26.7722 Y24.5467
G01 X26.7841 Y24.5139
G01 X26.7963 Y24.4826
G01 X26.8082 Y24.4540
G01 X26.8223 Y24.4222
G01 X26.8327 Y24.4002
G01 X26.8402 Y24.3811
G01 X26.8492 Y24.3610
G01 X26.8572 Y24.3445
G01 X26.8663 Y24.3278
G01 X26.8749 Y24.3132
G01 X26.8846 Y24.2978
G01 X26.8960 Y24.2812
G01 X26.9124 Y24.2597
G01 X26.9258 Y24.2437
G01 X26.9413 Y24.2266
G01 X26.9614 Y24.2066
G01 X26.9769 Y24.1927
G01 X26.9947 Y24.1780
G01 X27.0166 Y24.1618
G01 X27.0387 Y24.1471
G01 X27.0634 Y24.1325
G01 X27.0847 Y24.1214
G01 X27.1028 Y24.1129
G01 X27.1290 Y24.1022
G01 X27.1474 Y24.0956
G01 X27.1700 Y24.0886
G01 X27.1992 Y24.0812
G01 X27.2225 Y24.0767
G01 X27.2506 Y24.0726
G01 X27.2716 Y24.0706
G01 X27.2945 Y24.0695
G01 X27.3237 Y24.0695
G01 X27.3466 Y24.0706
G01 X27.3676 Y24.0726
G01 X27.3957 Y24.0767
G01 X27.4187 Y24.0812
G01 X27.4382 Y24.0859
G01 X27.4657 Y24.0939
G01 X27.4892 Y24.1022
G01 X27.5154 Y24.1129
G01 X27.5332 Y24.1212
G01 X27.5630 Y24.1371
G01 X27.5804 Y24.1476
G01 X27.5989 Y24.1599
G01 X27.6158 Y24.1722
G01 X27.6372 Y24.1893
G01 X27.6558 Y24.2058
G01 X27.6693 Y24.2188
G01 X27.6895 Y24.2403
G01 X27.7050 Y24.2586
G01 X27.7231 Y24.2823
G01 X27.7341 Y24.2985
G01 X27.7458 Y24.3172
G01 X27.7549 Y24.3331
G01 X27.7635 Y24.3495
G01 X27.7718 Y24.3668
G01 X27.7784 Y24.3821
G01 X27.7858 Y24.4006
G01 X27.7959 Y24.4222
G01 X27.8082 Y24.4497
G01 X27.8219 Y24.4826
G01 X27.8357 Y24.5182
G01 X27.8471 Y24.5498
G01 X27.8578 Y24.5820
G01 X27.8669 Y24.6116
G01 X27.8761 Y24.6440
G01 X27.8856 Y24.6814
G01 X27.8934 Y24.7156
G01 X27.9000 Y24.7479
G01 X27.9061 Y24.7816
G01 X27.9116 Y24.8168
G01 X27.9158 Y24.8495
G01 X27.9196 Y24.8849
G01 X27.9223 Y24.9178
G01 X27.9241 Y24.9487
G01 X27.9254 Y24.9833
G01 X27.9259 Y25.0163
G01 X27.9254 Y25.0518
G01 X27.9244 Y25.0847
G01 X27.9221 Y25.1231
G01 X27.9191 Y25.1586
G01 X27.9155 Y25.1913
G01 X27.9108 Y25.2266
G01 X27.9055 Y25.2597
G01 X27.8994 Y25.2929
G01 X27.8925 Y25.3265
G01 X27.8848 Y25.3599
G01 X27.8763 Y25.3932
G01 X27.8679 Y25.4231
G01 X27.8578 Y25.4560
G01 X27.8473 Y25.4875
G01 X27.8338 Y25.5248
G01 X27.8219 Y25.5554
G01 X27.8103 Y25.5833
G01 X27.7959 Y25.6158
G01 X27.7858 Y25.6374
G01 X27.7784 Y25.6559
G01 X27.7718 Y25.6712
G01 X27.7635 Y25.6885
G01 X27.7549 Y25.7049
G01 X27.7458 Y25.7208
G01 X27.7362 Y25.7362
G01 X27.7267 Y25.7505
G01 X27.7152 Y25.7664
G01 X27.7009 Y25.7843
G01 X27.6887 Y25.7986
G01 X27.6693 Y25.8192
G01 X27.6553 Y25.8327
G01 X27.6427 Y25.8441
G01 X27.6249 Y25.8588
G01 X27.6084 Y25.8713
G01 X27.5862 Y25.8866
G01 X27.5701 Y25.8967
G01 X27.5528 Y25.9065
G01 X27.5332 Y25.9168
G01 X27.5154 Y25.9251
G01 X27.4892 Y25.9358
G01 X27.4708 Y25.9424
G01 X27.4495 Y25.9490
G01 X27.4316 Y25.9538
G01 X27.4127 Y25.9581
G01 X27.3946 Y25.9615
G01 X27.3662 Y25.9656
G01 X27.3466 Y25.9674
G01 X27.3237 Y25.9685
G01 X27.3054 Y25.9687
G01 X27.2763 Y25.9677
G01 X27.2585 Y25.9663
G01 X27.2344 Y25.9632
G01 X27.2055 Y25.9581
G01 X27.1864 Y25.9538
G01 X27.1649 Y25.9479
G01 X27.1464 Y25.9420
G01 X27.1290 Y25.9358
G01 X27.1028 Y25.9251
G01 X27.0847 Y25.9166
G01 X27.0645 Y25.9061
G01 X27.0397 Y25.8915
G01 X27.0241 Y25.8815
G01 X27.0073 Y25.8695
G01 X26.9897 Y25.8560
G01 X26.9769 Y25.8453
G01 X26.9624 Y25.8323
G01 X26.9496 Y25.8199
G01 X26.9360 Y25.8057
G01 X26.9182 Y25.7854
G01 X26.9057 Y25.7697
G01 X26.8953 Y25.7558
G01 X26.8846 Y25.7402
G01 X26.8728 Y25.7214
G01 X26.8629 Y25.7041
G01 X26.8549 Y25.6889
G01 X26.8472 Y25.6728
G01 X26.8402 Y25.6569
G01 X26.8327 Y25.6378
G01 X26.8223 Y25.6158
G01 X26.8079 Y25.5833
G01 X26.7953 Y25.5528
G01 X26.7827 Y25.5205
G01 X26.7722 Y25.4913
G01 X26.7616 Y25.4596
G01 X26.7513 Y25.4264
G01 X26.7421 Y25.3940
G01 X26.7324 Y25.3559
G01 X26.7249 Y25.3231
G01 X26.7188 Y25.2929
G01 X26.7127 Y25.2597
G01 X26.7074 Y25.2266
G01 X26.7027 Y25.1913
G01 X26.6991 Y25.1586
G01 X26.6961 Y25.1231
G01 X26.6938 Y25.0847
G01 X26.6928 Y25.0518
G01 X26.6924 Y25.0190
G00 Z1.0000
G00 X25.2867 Y25.7495
G01 F25.00
G01 Z-0.0399
G01 F40.00
G01 X25.2735 Y25.7347
G01 X25.2606 Y25.7194
G01 X25.2466 Y25.7018
G01 X25.2342 Y25.6852
G01 X25.2229 Y25.6689
G01 X25.2051 Y25.6413
G01 X25.1860 Y25.6079
G01 X25.1762 Y25.5886
G01 X25.1682 Y25.5718
G01 X25.1587 Y25.5502
G01 X25.1510 Y25.5311
G01 X25.1398 Y25.4996
G01 X25.1352 Y25.4835
G01 X25.1338 Y25.4777
G01 X25.1307 Y25.4598
G01 X25.1293 Y25.4417
G01 X25.1295 Y25.4250
G01 X25.1319 Y25.4025
G01 X25.1361 Y25.3832
G01 X25.1412 Y25.3673
G01 X25.1500 Y25.3465
G01 X25.1596 Y25.3293
G01 X25.1690 Y25.3155
G01 X25.1835 Y25.2981
G01 X25.1977 Y25.2845
G01 X25.2107 Y25.2740
G01 X25.2155 Y25.2706
G01 X25.2309 Y25.2609
G01 X25.2499 Y25.2515
G01 X25.2654 Y25.2454
G01 X25.2815 Y25.2408
G01 X25.3037 Y25.2365
G01 X25.3263 Y25.2349
G01 X25.3430 Y25.2353
G01 X25.3596 Y25.2371
G01 X25.3818 Y25.2417
G01 X25.4032 Y25.2489
G01 X25.4185 Y25.2556
G01 X25.4344 Y25.2644
G01 X25.4519 Y25.2764
G01 X25.4669 Y25.2891
G01 X25.4805 Y25.3033
G01 X25.4928 Y25.3187
G01 X25.5034 Y25.3352
G01 X25.5117 Y25.3514
G01 X25.5191 Y25.3696
G01 X25.5257 Y25.3885
G01 X25.5320 Y25.4034
G01 X25.5391 Y25.4178
G01 X25.5470 Y25.4318
G01 X25.5600 Y25.4514
G01 X25.5704 Y25.4650
G01 X25.5806 Y25.4768
G01 X25.5916 Y25.4881
G01 X25.6095 Y25.5041
G01 X25.6293 Y25.5190
G01 X25.6423 Y25.5273
G01 X25.6563 Y25.5352
G01 X25.6633 Y25.5388
G01 X25.6858 Y25.5487
G01 X25.7087 Y25.5565
G01 X25.7312 Y25.5621
G01 X25.7483 Y25.5650
G01 X25.7718 Y25.5673
G01 X25.7931 Y25.5678
G01 X25.8044 Y25.5671
G01 X25.8157 Y25.5656
G01 X25.8316 Y25.5622
G01 X25.8423 Y25.5591
G01 X25.8532 Y25.5551
G01 X25.8632 Y25.5506
G01 X25.8729 Y25.5456
G01 X25.8829 Y25.5395
G01 X25.8919 Y25.5332
G01 X25.9050 Y25.5224
G01 X25.9163 Y25.5111
G01 X25.9239 Y25.5023
G01 X25.9303 Y25.4936
G01 X25.9368 Y25.4835
G01 X25.9420 Y25.4744
G01 X25.9468 Y25.4645
G01 X25.9511 Y25.4537
G01 X25.9545 Y25.4437
G01 X25.9575 Y25.4320
G01 X25.9604 Y25.4157
G01 X25.9614 Y25.4052
G01 X25.9618 Y25.3967
G01 X25.9616 Y25.3876
G01 X25.9608 Y25.3746
G01 X25.9581 Y25.3558
G01 X25.9555 Y25.3441
G01 X25.9499 Y25.3257
G01 X25.9452 Y25.3138
G01 X25.9373 Y25.2974
G01 X25.9305 Y25.2859
G01 X25.9238 Y25.2760
G01 X25.9163 Y25.2662
G01 X25.9076 Y25.2563
G01 X25.8961 Y25.2446
G01 X25.8838 Y25.2312
G01 X25.1770 Y24.3995
G01 X25.1640 Y24.3826
G01 X25.1544 Y24.3670
G01 X25.1469 Y24.3519
G01 X25.1387 Y24.3306
G01 X25.1331 Y24.3085
G01 X25.1305 Y24.2919
G01 X25.1294 Y24.2751
G01 X25.1293 Y24.2691
G01 X25.1301 Y24.2508
G01 X25.1327 Y24.2327
G01 X25.1365 Y24.2163
G01 X25.1438 Y24.1947
G01 X25.1536 Y24.1740
G01 X25.1639 Y24.1571
G01 X25.1739 Y24.1436
G01 X25.1850 Y24.1310
G01 X25.2017 Y24.1154
G01 X25.2176 Y24.1035
G01 X25.2372 Y24.0919
G01 X25.2524 Y24.0847
G01 X25.2682 Y24.0789
G01 X25.2903 Y24.0731
G01 X25.3114 Y24.0701
G01 X25.3297 Y24.0692
G01 X26.1638 Y24.0692
G01 X26.1849 Y24.0706
G01 X26.2014 Y24.0731
G01 X26.2176 Y24.0771
G01 X26.2390 Y24.0845
G01 X26.2594 Y24.0944
G01 X26.2737 Y24.1030
G01 X26.2871 Y24.1129
G01 X26.3019 Y24.1259
G01 X26.3173 Y24.1425
G01 X26.3290 Y24.1583
G01 X26.3404 Y24.1779
G01 X26.3475 Y24.1930
G01 X26.3532 Y24.2087
G01 X26.3589 Y24.2306
G01 X26.3619 Y24.2515
G01 X26.3627 Y24.2727
G01 X26.3618 Y24.2893
G01 X26.3594 Y24.3059
G01 X26.3541 Y24.3279
G01 X26.3475 Y24.3464
G01 X26.3376 Y24.3668
G01 X26.3290 Y24.3811
G01 X26.3191 Y24.3945
G01 X26.3041 Y24.4115
G01 X26.2871 Y24.4265
G01 X26.2737 Y24.4364
G01 X26.2594 Y24.4450
G01 X26.2390 Y24.4549
G01 X26.2205 Y24.4615
G01 X26.2043 Y24.4657
G01 X26.1985 Y24.4668
G01 X26.1805 Y24.4693
G01 X26.1623 Y24.4702
G01 X25.7632 Y24.4702
G01 X26.1847 Y24.9660
G01 X26.2037 Y24.9858
G01 X26.2159 Y24.9994
G01 X26.2283 Y25.0143
G01 X26.2397 Y25.0288
G01 X26.2504 Y25.0434
G01 X26.2615 Y25.0593
G01 X26.2724 Y25.0763
G01 X26.2810 Y25.0907
G01 X26.2910 Y25.1086
G01 X26.3049 Y25.1361
G01 X26.3131 Y25.1543
G01 X26.3205 Y25.1722
G01 X26.3268 Y25.1889
G01 X26.3381 Y25.2233
G01 X26.3448 Y25.2481
G01 X26.3489 Y25.2655
G01 X26.3529 Y25.2854
G01 X26.3584 Y25.3217
G01 X26.3616 Y25.3581
G01 X26.3627 Y25.3956
G01 X26.3617 Y25.4277
G01 X26.3597 Y25.4531
G01 X26.3549 Y25.4886
G01 X26.3517 Y25.5059
G01 X26.3476 Y25.5247
G01 X26.3384 Y25.5592
G01 X26.3342 Y25.5728
G01 X26.3279 Y25.5907
G01 X26.3217 Y25.6071
G01 X26.3148 Y25.6236
G01 X26.3042 Y25.6466
G01 X26.2964 Y25.6619
G01 X26.2866 Y25.6798
G01 X26.2686 Y25.7089
G01 X26.2581 Y25.7246
G01 X26.2474 Y25.7392
G01 X26.2357 Y25.7543
G01 X26.2241 Y25.7682
G01 X26.2123 Y25.7816
G01 X26.1993 Y25.7954
G01 X26.1755 Y25.8184
G01 X26.1621 Y25.8302
G01 X26.1482 Y25.8418
G01 X26.1331 Y25.8535
G01 X26.1185 Y25.8642
G01 X26.1028 Y25.8747
G01 X26.0883 Y25.8839
G01 X26.0664 Y25.8968
G01 X26.0519 Y25.9045
G01 X26.0338 Y25.9135
G01 X26.0183 Y25.9205
G01 X26.0010 Y25.9278
G01 X25.9846 Y25.9340
G01 X25.9656 Y25.9406
G01 X25.9485 Y25.9459
G01 X25.9319 Y25.9504
G01 X25.9136 Y25.9549
G01 X25.8953 Y25.9587
G01 X25.8768 Y25.9619
G01 X25.8597 Y25.9643
G01 X25.8457 Y25.9659
G01 X25.8266 Y25.9675
G01 X25.8086 Y25.9685
G01 X25.7895 Y25.9688
G01 X25.7513 Y25.9678
G01 X25.7138 Y25.9648
G01 X25.6871 Y25.9613
G01 X25.6504 Y25.9548
G01 X25.6311 Y25.9506
G01 X25.6123 Y25.9459
G01 X25.5930 Y25.9404
G01 X25.5756 Y25.9349
G01 X25.5563 Y25.9284
G01 X25.5374 Y25.9212
G01 X25.5196 Y25.9139
G01 X25.5021 Y25.9061
G01 X25.4672 Y25.8888
G01 X25.4336 Y25.8697
G01 X25.4043 Y25.8508
G01 X25.3729 Y25.8281
G01 X25.3572 Y25.8157
G01 X25.3426 Y25.8035
G01 X25.3140 Y25.7774
G01 X25.2998 Y25.7633
G01 X25.2867 Y25.7495
G00 Z1.0000
G00 X25.8237 Y27.5688
G01 F25.00
G01 Z-0.0399
G01 F40.00
G01 X25.5302 Y27.5688
G01 X25.5303 Y27.3465
G01 X25.5311 Y27.3333
G01 X25.5339 Y27.3133
G01 X25.5385 Y27.2938
G01 X25.5426 Y27.2810
G01 X25.5472 Y27.2689
G01 X25.5528 Y27.2568
G01 X25.5626 Y27.2394
G01 X25.5737 Y27.2230
G01 X25.5822 Y27.2125
G01 X25.5912 Y27.2026
G01 X25.6004 Y27.1937
G01 X25.6107 Y27.1849
G01 X25.6210 Y27.1771
G01 X25.6324 Y27.1696
G01 X25.6498 Y27.1598
G01 X25.6619 Y27.1542
G01 X25.6740 Y27.1496
G01 X25.6939 Y27.1436
G01 X25.7127 Y27.1398
G01 X25.7263 Y27.1381
G01 X25.7395 Y27.1373
G01 X25.7591 Y27.1376
G01 X25.7793 Y27.1398
G01 X25.7920 Y27.1421
G01 X25.8052 Y27.1455
G01 X25.8244 Y27.1519
G01 X25.8422 Y27.1598
G01 X25.8593 Y27.1693
G01 X25.8760 Y27.1807
G01 X25.8865 Y27.1892
G01 X25.8964 Y27.1982
G01 X25.9098 Y27.2125
G01 X25.9219 Y27.2280
G01 X25.9330 Y27.2453
G01 X25.9420 Y27.2627
G01 X25.9494 Y27.2810
G01 X25.9554 Y27.3009
G01 X25.9592 Y27.3197
G01 X25.9614 Y27.3399
G01 X25.9618 Y27.3546
G01 X25.9618 Y27.4307
G01 X25.9610 Y27.4500
G01 X25.9598 Y27.4586
G01 X25.9567 Y27.4722
G01 X25.9540 Y27.4809
G01 X25.9509 Y27.4885
G01 X25.9466 Y27.4976
G01 X25.9428 Y27.5044
G01 X25.9373 Y27.5128
G01 X25.9290 Y27.5234
G01 X25.9229 Y27.5299
G01 X25.9129 Y27.5389
G01 X25.9058 Y27.5443
G01 X25.8974 Y27.5498
G01 X25.8906 Y27.5536
G01 X25.8815 Y27.5579
G01 X25.8739 Y27.5610
G01 X25.8652 Y27.5637
G01 X25.8516 Y27.5668
G01 X25.8430 Y27.5680
G01 X25.8237 Y27.5688
G00 Z1.0000
G00 X25.1420 Y27.9174
G01 F25.00
G01 Z-0.0399
G01 F40.00
G01 X25.1386 Y27.8959
G01 X25.1358 Y27.8753
G01 X25.1317 Y27.8349
G01 X25.1302 Y27.8090
G01 X25.1292 Y27.7697
G01 X25.1295 Y27.3371
G01 X25.1303 Y27.3171
G01 X25.1322 Y27.2928
G01 X25.1359 Y27.2625
G01 X25.1393 Y27.2420
G01 X25.1429 Y27.2237
G01 X25.1486 Y27.1999
G01 X25.1573 Y27.1691
G01 X25.1636 Y27.1500
G01 X25.1715 Y27.1285
G01 X25.1794 Y27.1093
G01 X25.1922 Y27.0815
G01 X25.2019 Y27.0625
G01 X25.2128 Y27.0431
G01 X25.2236 Y27.0252
G01 X25.2404 Y26.9999
G01 X25.2553 Y26.9794
G01 X25.2755 Y26.9542
G01 X25.2883 Y26.9396
G01 X25.3046 Y26.9222
G01 X25.3192 Y26.9077
G01 X25.3320 Y26.8959
G01 X25.3465 Y26.8832
G01 X25.3716 Y26.8629
G01 X25.3920 Y26.8480
G01 X25.4182 Y26.8306
G01 X25.4396 Y26.8178
G01 X25.4687 Y26.8021
G01 X25.4906 Y26.7916
G01 X25.5215 Y26.7785
G01 X25.5437 Y26.7704
G01 X25.5753 Y26.7604
G01 X25.6098 Y26.7515
G01 X25.6350 Y26.7463
G01 X25.6543 Y26.7431
G01 X25.6689 Y26.7411
G01 X25.6867 Y26.7391
G01 X25.7048 Y26.7376
G01 X25.7301 Y26.7365
G01 X25.7619 Y26.7365
G01 X25.7872 Y26.7376
G01 X25.8197 Y26.7407
G01 X25.8444 Y26.7441
G01 X25.8753 Y26.7499
G01 X25.9115 Y26.7589
G01 X25.9351 Y26.7660
G01 X25.9654 Y26.7766
G01 X25.9897 Y26.7864
G01 X26.0052 Y26.7933
G01 X26.0233 Y26.8021
G01 X26.0518 Y26.8174
G01 X26.0738 Y26.8306
G01 X26.1000 Y26.8480
G01 X26.1204 Y26.8629
G01 X26.1342 Y26.8738
G01 X26.1490 Y26.8862
G01 X26.1728 Y26.9077
G01 X26.1913 Y26.9262
G01 X26.2122 Y26.9492
G01 X26.2247 Y26.9641
G01 X26.2395 Y26.9830
G01 X26.2510 Y26.9990
G01 X26.2684 Y27.0252
G01 X26.2788 Y27.0424
G01 X26.2901 Y27.0625
G01 X26.2998 Y27.0815
G01 X26.3126 Y27.1093
G01 X26.3205 Y27.1285
G01 X26.3286 Y27.1507
G01 X26.3384 Y27.1814
G01 X26.3444 Y27.2037
G01 X26.3493 Y27.2249
G01 X26.3549 Y27.2546
G01 X26.3578 Y27.2752
G01 X26.3599 Y27.2937
G01 X26.3614 Y27.3118
G01 X26.3625 Y27.3361
G01 X26.3628 Y27.4362
G01 X26.3622 Y27.4582
G01 X26.3603 Y27.4861
G01 X26.3580 Y27.5064
G01 X26.3556 Y27.5226
G01 X26.3509 Y27.5476
G01 X26.3442 Y27.5755
G01 X26.3382 Y27.5958
G01 X26.3312 Y27.6169
G01 X26.3239 Y27.6359
G01 X26.3123 Y27.6624
G01 X26.3019 Y27.6836
G01 X26.2920 Y27.7015
G01 X26.2768 Y27.7263
G01 X26.2669 Y27.7410
G01 X26.2533 Y27.7597
G01 X26.2411 Y27.7753
G01 X26.2289 Y27.7896
G01 X26.2091 Y27.8108
G01 X26.1948 Y27.8247
G01 X26.1777 Y27.8400
G01 X26.1625 Y27.8527
G01 X26.1404 Y27.8695
G01 X26.1228 Y27.8815
G01 X26.1043 Y27.8932
G01 X26.0887 Y27.9023
G01 X26.0706 Y27.9119
G01 X26.0443 Y27.9244
G01 X26.0216 Y27.9338
G01 X26.0051 Y27.9398
G01 X25.9880 Y27.9455
G01 X25.9698 Y27.9508
G01 X25.9532 Y27.9550
G01 X25.9365 Y27.9587
G01 X25.9170 Y27.9624
G01 X25.8994 Y27.9650
G01 X25.8791 Y27.9673
G01 X25.8512 Y27.9692
G01 X25.8292 Y27.9698
G01 X25.5756 Y27.9698
G01 X25.5837 Y27.9859
G01 X25.5941 Y28.0048
G01 X25.6064 Y28.0245
G01 X25.6126 Y28.0337
G01 X25.6193 Y28.0432
G01 X25.6326 Y28.0606
G01 X25.6398 Y28.0693
G01 X25.6550 Y28.0865
G01 X25.6785 Y28.1100
G01 X25.6957 Y28.1252
G01 X25.7044 Y28.1324
G01 X25.7218 Y28.1457
G01 X25.7313 Y28.1524
G01 X25.7405 Y28.1586
G01 X25.7602 Y28.1709
G01 X25.7693 Y28.1761
G01 X25.7897 Y28.1867
G01 X25.8093 Y28.1959
G01 X25.8200 Y28.2003
G01 X25.8307 Y28.2046
G01 X25.8520 Y28.2121
G01 X25.8731 Y28.2184
G01 X25.8842 Y28.2212
G01 X25.9063 Y28.2262
G01 X25.9172 Y28.2281
G01 X25.9282 Y28.2299
G01 X25.9513 Y28.2327
G01 X25.9729 Y28.2342
G01 X25.9997 Y28.2349
G01 X26.0193 Y28.2362
G01 X26.0372 Y28.2392
G01 X26.0563 Y28.2442
G01 X26.0774 Y28.2523
G01 X26.0924 Y28.2597
G01 X26.1066 Y28.2684
G01 X26.1248 Y28.2819
G01 X26.1402 Y28.2964
G01 X26.1522 Y28.3101
G01 X26.1638 Y28.3260
G01 X26.1737 Y28.3430
G01 X26.1818 Y28.3609
G01 X26.1882 Y28.3795
G01 X26.1928 Y28.3986
G01 X26.1954 Y28.4181
G01 X26.1962 Y28.4378
G01 X26.1949 Y28.4574
G01 X26.1918 Y28.4768
G01 X26.1868 Y28.4959
G01 X26.1799 Y28.5143
G01 X26.1713 Y28.5320
G01 X26.1610 Y28.5487
G01 X26.1491 Y28.5644
G01 X26.1346 Y28.5798
G01 X26.1209 Y28.5918
G01 X26.1075 Y28.6017
G01 X26.0880 Y28.6133
G01 X26.0701 Y28.6214
G01 X26.0543 Y28.6269
G01 X26.0324 Y28.6324
G01 X26.0114 Y28.6351
G01 X25.9947 Y28.6358
G01 X25.9721 Y28.6354
G01 X25.9301 Y28.6333
G01 X25.9090 Y28.6314
G01 X25.8725 Y28.6269
G01 X25.8484 Y28.6231
G01 X25.8265 Y28.6191
G01 X25.8060 Y28.6147
G01 X25.7709 Y28.6061
G01 X25.7495 Y28.6001
G01 X25.7295 Y28.5939
G01 X25.6901 Y28.5801
G01 X25.6484 Y28.5631
G01 X25.6286 Y28.5542
G01 X25.6094 Y28.5449
G01 X25.5774 Y28.5281
G01 X25.5581 Y28.5171
G01 X25.5376 Y28.5047
G01 X25.5183 Y28.4924
G01 X25.4852 Y28.4694
G01 X25.4681 Y28.4566
G01 X25.4512 Y28.4433
G01 X25.4348 Y28.4297
G01 X25.4080 Y28.4060
G01 X25.3914 Y28.3903
G01 X25.3773 Y28.3763
G01 X25.3625 Y28.3608
G01 X25.3478 Y28.3446
G01 X25.3348 Y28.3296
G01 X25.3212 Y28.3132
G01 X25.3084 Y28.2969
G01 X25.2956 Y28.2798
G01 X25.2720 Y28.2459
G01 X25.2482 Y28.2075
G01 X25.2373 Y28.1884
G01 X25.2274 Y28.1699
G01 X25.2088 Y28.1321
G01 X25.2000 Y28.1123
G01 X25.1866 Y28.0793
G01 X25.1789 Y28.0584
G01 X25.1722 Y28.0389
G01 X25.1659 Y28.0187
G01 X25.1601 Y27.9986
G01 X25.1501 Y27.9583
G01 X25.1458 Y27.9377
G01 X25.1420 Y27.9174
G00 Z1.0000
G00 X27.6761 Y27.0692
G01 F25.00
G01 Z-0.0399
G01 F40.00
G01 X27.7269 Y27.0692
G01 X27.7436 Y27.0701
G01 X27.7645 Y27.0731
G01 X27.7822 Y27.0774
G01 X27.8021 Y27.0845
G01 X27.8199 Y27.0929
G01 X27.8368 Y27.1030
G01 X27.8548 Y27.1167
G01 X27.8672 Y27.1279
G01 X27.8784 Y27.1403
G01 X27.8904 Y27.1559
G01 X27.9022 Y27.1752
G01 X27.9106 Y27.1930
G01 X27.9172 Y27.2115
G01 X27.9225 Y27.2335
G01 X27.9249 Y27.2501
G01 X27.9258 Y27.2667
G01 X27.9249 Y27.2893
G01 X27.9220 Y27.3088
G01 X27.9172 Y27.3279
G01 X27.9106 Y27.3464
G01 X27.9007 Y27.3668
G01 X27.8912 Y27.3823
G01 X27.8784 Y27.3991
G01 X27.8672 Y27.4115
G01 X27.8548 Y27.4227
G01 X27.8392 Y27.4347
G01 X27.8199 Y27.4465
G01 X27.8021 Y27.4549
G01 X27.7836 Y27.4615
G01 X27.7660 Y27.4660
G01 X27.7450 Y27.4692
G01 X27.7284 Y27.4701
G01 X27.6761 Y27.4702
G01 X27.6760 Y27.6057
G01 X27.6751 Y27.6223
G01 X27.6727 Y27.6389
G01 X27.6682 Y27.6580
G01 X27.6619 Y27.6766
G01 X27.6596 Y27.6821
G01 X27.6524 Y27.6972
G01 X27.6423 Y27.7141
G01 X27.6306 Y27.7299
G01 X27.6194 Y27.7423
G01 X27.6152 Y27.7465
G01 X27.6016 Y27.7586
G01 X27.5870 Y27.7694
G01 X27.5727 Y27.7780
G01 X27.5550 Y27.7867
G01 X27.5495 Y27.7890
G01 X27.5338 Y27.7945
G01 X27.5147 Y27.7993
G01 X27.4952 Y27.8022
G01 X27.4786 Y27.8031
G01 X27.4726 Y27.8031
G01 X27.4530 Y27.8018
G01 X27.4365 Y27.7993
G01 X27.4174 Y27.7945
G01 X27.3962 Y27.7867
G01 X27.3811 Y27.7795
G01 X27.3642 Y27.7694
G01 X27.3484 Y27.7577
G01 X27.3360 Y27.7465
G01 X27.3226 Y27.7321
G01 X27.3188 Y27.7275
G01 X27.3089 Y27.7141
G01 X27.2988 Y27.6972
G01 X27.2904 Y27.6794
G01 X27.2838 Y27.6609
G01 X27.2785 Y27.6389
G01 X27.2761 Y27.6223
G01 X27.2752 Y27.6057
G01 X27.2751 Y27.4702
G01 X27.1586 Y27.4702
G01 X27.4186 Y28.3802
G01 X27.4235 Y28.4023
G01 X27.4256 Y28.4189
G01 X27.4262 Y28.4371
G01 X27.4250 Y28.4582
G01 X27.4211 Y28.4805
G01 X27.4157 Y28.4994
G01 X27.4097 Y28.5150
G01 X27.4024 Y28.5300
G01 X27.3907 Y28.5494
G01 X27.3787 Y28.5650
G01 X27.3652 Y28.5793
G01 X27.3481 Y28.5941
G01 X27.3345 Y28.6038
G01 X27.3200 Y28.6122
G01 X27.3022 Y28.6206
G01 X27.2809 Y28.6281
G01 X27.2617 Y28.6325
G01 X27.2422 Y28.6351
G01 X27.2196 Y28.6356
G01 X27.2029 Y28.6345
G01 X27.1864 Y28.6318
G01 X27.1645 Y28.6262
G01 X27.1434 Y28.6180
G01 X27.1284 Y28.6105
G01 X27.1142 Y28.6018
G01 X27.0961 Y28.5882
G01 X27.0818 Y28.5747
G01 X27.0688 Y28.5599
G01 X27.0558 Y28.5414
G01 X27.0475 Y28.5269
G01 X27.0405 Y28.5117
G01 X27.0339 Y28.4932
G01 X26.6997 Y27.3233
G01 X26.6956 Y27.3058
G01 X26.6933 Y27.2894
G01 X26.6923 Y27.2670
G01 X26.6940 Y27.2446
G01 X26.6967 Y27.2282
G01 X26.7016 Y27.2094
G01 X26.7096 Y27.1884
G01 X26.7169 Y27.1735
G01 X26.7255 Y27.1594
G01 X26.7388 Y27.1413
G01 X26.7542 Y27.1250
G01 X26.7666 Y27.1140
G01 X26.7799 Y27.1041
G01 X26.7991 Y27.0925
G01 X26.8195 Y27.0832
G01 X26.8351 Y27.0777
G01 X26.8511 Y27.0737
G01 X26.8733 Y27.0702
G01 X26.8928 Y27.0692
G01 X27.2751 Y27.0692
G01 X27.2751 Y26.9367
G01 X27.2761 Y26.9171
G01 X27.2790 Y26.8976
G01 X27.2838 Y26.8785
G01 X27.2904 Y26.8600
G01 X27.2988 Y26.8422
G01 X27.3089 Y26.8253
G01 X27.3226 Y26.8073
G01 X27.3338 Y26.7949
G01 X27.3462 Y26.7837
G01 X27.3642 Y26.7700
G01 X27.3811 Y26.7599
G01 X27.4017 Y26.7504
G01 X27.4174 Y26.7449
G01 X27.4336 Y26.7407
G01 X27.4530 Y26.7376
G01 X27.4589 Y26.7370
G01 X27.4771 Y26.7362
G01 X27.4952 Y26.7372
G01 X27.5118 Y26.7396
G01 X27.5338 Y26.7449
G01 X27.5550 Y26.7527
G01 X27.5701 Y26.7599
G01 X27.5845 Y26.7684
G01 X27.6028 Y26.7817
G01 X27.6174 Y26.7949
G01 X27.6286 Y26.8073
G01 X27.6423 Y26.8253
G01 X27.6524 Y26.8422
G01 X27.6619 Y26.8628
G01 X27.6674 Y26.8785
G01 X27.6716 Y26.8947
G01 X27.6747 Y26.9141
G01 X27.6761 Y26.9367
G01 X27.6761 Y27.0692
G00 Z1.0000
G00 X28.4401 Y26.9179
G01 F25.00
G01 Z-0.0399
G01 F40.00
G01 X28.4612 Y26.8951
G01 X28.4755 Y26.8812
G01 X28.5012 Y26.8586
G01 X28.5168 Y26.8462
G01 X28.5363 Y26.8319
G01 X28.5606 Y26.8160
G01 X28.5816 Y26.8036
G01 X28.5997 Y26.7940
G01 X28.6252 Y26.7819
G01 X28.6476 Y26.7725
G01 X28.6770 Y26.7621
G01 X28.7005 Y26.7551
G01 X28.7289 Y26.7482
G01 X28.7533 Y26.7435
G01 X28.7821 Y26.7395
G01 X28.8026 Y26.7377
G01 X28.8201 Y26.7367
G01 X28.8411 Y26.7362
G01 X29.3406 Y26.7362
G01 X29.3632 Y26.7376
G01 X29.3826 Y26.7407
G01 X29.3988 Y26.7449
G01 X29.4145 Y26.7504
G01 X29.4351 Y26.7599
G01 X29.4520 Y26.7700
G01 X29.4678 Y26.7817
G01 X29.4844 Y26.7971
G01 X29.4974 Y26.8119
G01 X29.5073 Y26.8253
G01 X29.5159 Y26.8396
G01 X29.5258 Y26.8600
G01 X29.5332 Y26.8814
G01 X29.5372 Y26.8976
G01 X29.5397 Y26.9141
G01 X29.5411 Y26.9352
G01 X29.5411 Y27.7693
G01 X29.5402 Y27.7875
G01 X29.5372 Y27.8084
G01 X29.5315 Y27.8303
G01 X29.5258 Y27.8460
G01 X29.5187 Y27.8611
G01 X29.5073 Y27.8807
G01 X29.4936 Y27.8987
G01 X29.4824 Y27.9111
G01 X29.4700 Y27.9223
G01 X29.4520 Y27.9360
G01 X29.4351 Y27.9461
G01 X29.4173 Y27.9545
G01 X29.3988 Y27.9611
G01 X29.3797 Y27.9659
G01 X29.3573 Y27.9690
G01 X29.3406 Y27.9698
G01 X29.0908 Y27.9698
G01 X29.0712 Y27.9688
G01 X29.0517 Y27.9659
G01 X29.0326 Y27.9611
G01 X29.0114 Y27.9533
G01 X28.9963 Y27.9461
G01 X28.9819 Y27.9376
G01 X28.9636 Y27.9243
G01 X28.9470 Y27.9089
G01 X28.9358 Y27.8965
G01 X28.9258 Y27.8831
G01 X28.9140 Y27.8638
G01 X28.9045 Y27.8432
G01 X28.8990 Y27.8275
G01 X28.8948 Y27.8113
G01 X28.8913 Y27.7889
G01 X28.8904 Y27.7663
G01 X28.8913 Y27.7497
G01 X28.8937 Y27.7331
G01 X28.8990 Y27.7111
G01 X28.9068 Y27.6899
G01 X28.9140 Y27.6748
G01 X28.9225 Y27.6604
G01 X28.9258 Y27.6555
G01 X28.9368 Y27.6410
G01 X28.9490 Y27.6275
G01 X28.9614 Y27.6163
G01 X28.9794 Y27.6026
G01 X28.9990 Y27.5912
G01 X29.0141 Y27.5841
G01 X29.0298 Y27.5784
G01 X29.0517 Y27.5727
G01 X29.0712 Y27.5698
G01 X29.0893 Y27.5688
G01 X29.1401 Y27.5688
G01 X29.1401 Y27.1372
G01 X28.8429 Y27.1372
G01 X28.8316 Y27.1376
G01 X28.8231 Y27.1384
G01 X28.8148 Y27.1398
G01 X28.8051 Y27.1422
G01 X28.7928 Y27.1463
G01 X28.7838 Y27.1502
G01 X28.7766 Y27.1539
G01 X28.7681 Y27.1592
G01 X28.7574 Y27.1670
G01 X28.7502 Y27.1733
G01 X28.7447 Y27.1788
G01 X28.7384 Y27.1860
G01 X28.7330 Y27.1931
G01 X28.7253 Y27.2052
G01 X28.7216 Y27.2124
G01 X28.7177 Y27.2214
G01 X28.7136 Y27.2337
G01 X28.7112 Y27.2435
G01 X28.7093 Y27.2559
G01 X28.7087 Y27.2654
G01 X28.7085 Y28.0968
G01 X28.7093 Y28.1161
G01 X28.7105 Y28.1247
G01 X28.7125 Y28.1342
G01 X28.7148 Y28.1422
G01 X28.7177 Y28.1506
G01 X28.7216 Y28.1596
G01 X28.7253 Y28.1668
G01 X28.7330 Y28.1789
G01 X28.7384 Y28.1860
G01 X28.7447 Y28.1932
G01 X28.7539 Y28.2021
G01 X28.7645 Y28.2104
G01 X28.7766 Y28.2181
G01 X28.7838 Y28.2218
G01 X28.7928 Y28.2257
G01 X28.8051 Y28.2298
G01 X28.8148 Y28.2322
G01 X28.8231 Y28.2336
G01 X28.8316 Y28.2344
G01 X28.8429 Y28.2348
G01 X29.3406 Y28.2348
G01 X29.3573 Y28.2356
G01 X29.3797 Y28.2387
G01 X29.4016 Y28.2444
G01 X29.4173 Y28.2501
G01 X29.4324 Y28.2572
G01 X29.4507 Y28.2678
G01 X29.4678 Y28.2803
G01 X29.4844 Y28.2957
G01 X29.4956 Y28.3081
G01 X29.5056 Y28.3215
G01 X29.5174 Y28.3408
G01 X29.5269 Y28.3614
G01 X29.5324 Y28.3771
G01 X29.5366 Y28.3933
G01 X29.5401 Y28.4157
G01 X29.5410 Y28.4383
G01 X29.5401 Y28.4549
G01 X29.5377 Y28.4715
G01 X29.5329 Y28.4921
G01 X29.5258 Y28.5120
G01 X29.5159 Y28.5324
G01 X29.5073 Y28.5467
G01 X29.4974 Y28.5601
G01 X29.4824 Y28.5771
G01 X29.4654 Y28.5921
G01 X29.4520 Y28.6020
G01 X29.4377 Y28.6106
G01 X29.4173 Y28.6205
G01 X29.3959 Y28.6279
G01 X29.3797 Y28.6319
G01 X29.3632 Y28.6344
G01 X29.3421 Y28.6358
G01 X28.8262 Y28.6355
G01 X28.7912 Y28.6334
G01 X28.7702 Y28.6310
G01 X28.7459 Y28.6272
G01 X28.7179 Y28.6213
G01 X28.6932 Y28.6149
G01 X28.6652 Y28.6059
G01 X28.6414 Y28.5970
G01 X28.6141 Y28.5850
G01 X28.5926 Y28.5744
G01 X28.5660 Y28.5593
G01 X28.5457 Y28.5464
G01 X28.5211 Y28.5291
G01 X28.5020 Y28.5142
G01 X28.4786 Y28.4937
G01 X28.4612 Y28.4769
G01 X28.4407 Y28.4547
G01 X28.4246 Y28.4356
G01 X28.4070 Y28.4123
G01 X28.3935 Y28.3924
G01 X28.3783 Y28.3676
G01 X28.3654 Y28.3437
G01 X28.3508 Y28.3125
G01 X28.3439 Y28.2958
G01 X28.3391 Y28.2830
G01 X28.3333 Y28.2656
G01 X28.3285 Y28.2502
G01 X28.3221 Y28.2255
G01 X28.3159 Y28.1962
G01 X28.3130 Y28.1774
G01 X28.3109 Y28.1613
G01 X28.3088 Y28.1364
G01 X28.3075 Y28.1023
G01 X28.3075 Y27.2697
G01 X28.3081 Y27.2487
G01 X28.3100 Y27.2198
G01 X28.3123 Y27.1995
G01 X28.3149 Y27.1819
G01 X28.3194 Y27.1587
G01 X28.3261 Y27.1304
G01 X28.3318 Y27.1109
G01 X28.3391 Y27.0890
G01 X28.3460 Y27.0711
G01 X28.3533 Y27.0538
G01 X28.3659 Y27.0272
G01 X28.3750 Y27.0102
G01 X28.3869 Y26.9900
G01 X28.3962 Y26.9755
G01 X28.4078 Y26.9585
G01 X28.4254 Y26.9354
G01 X28.4401 Y26.9179
G00 Z1.0000
G00 X28.4129 Y25.7495
G01 F25.00
G01 Z-0.0399
G01 F40.00
G01 X28.3997 Y25.7347
G01 X28.3868 Y25.7194
G01 X28.3728 Y25.7018
G01 X28.3604 Y25.6852
G01 X28.3491 Y25.6689
G01 X28.3313 Y25.6413
G01 X28.3122 Y25.6079
G01 X28.3024 Y25.5886
G01 X28.2944 Y25.5718
G01 X28.2849 Y25.5502
G01 X28.2772 Y25.5311
G01 X28.2660 Y25.4996
G01 X28.2614 Y25.4835
G01 X28.2600 Y25.4777
G01 X28.2569 Y25.4598
G01 X28.2555 Y25.4417
G01 X28.2557 Y25.4250
G01 X28.2581 Y25.4025
G01 X28.2623 Y25.3832
G01 X28.2674 Y25.3673
G01 X28.2762 Y25.3465
G01 X28.2858 Y25.3293
G01 X28.2952 Y25.3155
G01 X28.3097 Y25.2981
G01 X28.3239 Y25.2845
G01 X28.3369 Y25.2740
G01 X28.3417 Y25.2706
G01 X28.3571 Y25.2609
G01 X28.3761 Y25.2515
G01 X28.3916 Y25.2454
G01 X28.4077 Y25.2408
G01 X28.4299 Y25.2365
G01 X28.4525 Y25.2349
G01 X28.4692 Y25.2353
G01 X28.4858 Y25.2371
G01 X28.5080 Y25.2417
G01 X28.5294 Y25.2489
G01 X28.5447 Y25.2556
G01 X28.5606 Y25.2644
G01 X28.5781 Y25.2764
G01 X28.5931 Y25.2891
G01 X28.6067 Y25.3033
G01 X28.6190 Y25.3187
G01 X28.6296 Y25.3352
G01 X28.6379 Y25.3514
G01 X28.6453 Y25.3696
G01 X28.6519 Y25.3885
G01 X28.6582 Y25.4034
G01 X28.6653 Y25.4178
G01 X28.6732 Y25.4318
G01 X28.6862 Y25.4514
G01 X28.6966 Y25.4650
G01 X28.7068 Y25.4768
G01 X28.7178 Y25.4881
G01 X28.7357 Y25.5041
G01 X28.7555 Y25.5190
G01 X28.7685 Y25.5273
G01 X28.7825 Y25.5352
G01 X28.7895 Y25.5388
G01 X28.8120 Y25.5487
G01 X28.8349 Y25.5565
G01 X28.8574 Y25.5621
G01 X28.8745 Y25.5650
G01 X28.8980 Y25.5673
G01 X28.9193 Y25.5678
G01 X28.9306 Y25.5671
G01 X28.9419 Y25.5656
G01 X28.9578 Y25.5622
G01 X28.9685 Y25.5591
G01 X28.9794 Y25.5551
G01 X28.9894 Y25.5506
G01 X28.9991 Y25.5456
G01 X29.0091 Y25.5395
G01 X29.0181 Y25.5332
G01 X29.0312 Y25.5224
G01 X29.0425 Y25.5111
G01 X29.0501 Y25.5023
G01 X29.0565 Y25.4936
G01 X29.0630 Y25.4835
G01 X29.0682 Y25.4744
G01 X29.0730 Y25.4645
G01 X29.0773 Y25.4537
G01 X29.0807 Y25.4437
G01 X29.0837 Y25.4320
G01 X29.0866 Y25.4157
G01 X29.0876 Y25.4052
G01 X29.0880 Y25.3936
G01 X29.0871 Y25.3746
G01 X29.0844 Y25.3558
G01 X29.0818 Y25.3441
G01 X29.0762 Y25.3257
G01 X29.0715 Y25.3138
G01 X29.0636 Y25.2974
G01 X29.0568 Y25.2859
G01 X29.0501 Y25.2760
G01 X29.0426 Y25.2662
G01 X29.0339 Y25.2563
G01 X29.0224 Y25.2446
G01 X29.0109 Y25.2321
G01 X28.3032 Y24.3995
G01 X28.2902 Y24.3826
G01 X28.2806 Y24.3670
G01 X28.2731 Y24.3519
G01 X28.2649 Y24.3306
G01 X28.2593 Y24.3085
G01 X28.2567 Y24.2919
G01 X28.2556 Y24.2751
G01 X28.2555 Y24.2691
G01 X28.2563 Y24.2508
G01 X28.2589 Y24.2327
G01 X28.2627 Y24.2163
G01 X28.2700 Y24.1947
G01 X28.2798 Y24.1740
G01 X28.2901 Y24.1571
G01 X28.3001 Y24.1436
G01 X28.3112 Y24.1310
G01 X28.3279 Y24.1154
G01 X28.3438 Y24.1035
G01 X28.3634 Y24.0919
G01 X28.3786 Y24.0847
G01 X28.3944 Y24.0789
G01 X28.4165 Y24.0731
G01 X28.4376 Y24.0701
G01 X28.4559 Y24.0692
G01 X29.2900 Y24.0692
G01 X29.3111 Y24.0706
G01 X29.3276 Y24.0731
G01 X29.3438 Y24.0771
G01 X29.3652 Y24.0845
G01 X29.3856 Y24.0944
G01 X29.3999 Y24.1030
G01 X29.4133 Y24.1129
G01 X29.4281 Y24.1259
G01 X29.4435 Y24.1425
G01 X29.4552 Y24.1583
G01 X29.4666 Y24.1779
G01 X29.4737 Y24.1930
G01 X29.4794 Y24.2087
G01 X29.4851 Y24.2306
G01 X29.4881 Y24.2515
G01 X29.4889 Y24.2727
G01 X29.4880 Y24.2893
G01 X29.4856 Y24.3059
G01 X29.4803 Y24.3279
G01 X29.4737 Y24.3464
G01 X29.4638 Y24.3668
G01 X29.4552 Y24.3811
G01 X29.4453 Y24.3945
G01 X29.4303 Y24.4115
G01 X29.4133 Y24.4265
G01 X29.3999 Y24.4364
G01 X29.3856 Y24.4450
G01 X29.3652 Y24.4549
G01 X29.3467 Y24.4615
G01 X29.3305 Y24.4657
G01 X29.3247 Y24.4668
G01 X29.3067 Y24.4693
G01 X29.2885 Y24.4702
G01 X28.8894 Y24.4702
G01 X29.3104 Y24.9654
G01 X29.3300 Y24.9858
G01 X29.3422 Y24.9994
G01 X29.3546 Y25.0143
G01 X29.3660 Y25.0288
G01 X29.3767 Y25.0434
G01 X29.3878 Y25.0593
G01 X29.3987 Y25.0763
G01 X29.4073 Y25.0907
G01 X29.4173 Y25.1086
G01 X29.4312 Y25.1361
G01 X29.4394 Y25.1543
G01 X29.4468 Y25.1722
G01 X29.4531 Y25.1889
G01 X29.4644 Y25.2233
G01 X29.4711 Y25.2481
G01 X29.4752 Y25.2655
G01 X29.4792 Y25.2854
G01 X29.4847 Y25.3217
G01 X29.4879 Y25.3581
G01 X29.4889 Y25.3920
G01 X29.4887 Y25.4101
G01 X29.4879 Y25.4277
G01 X29.4859 Y25.4531
G01 X29.4811 Y25.4886
G01 X29.4779 Y25.5059
G01 X29.4738 Y25.5247
G01 X29.4646 Y25.5592
G01 X29.4604 Y25.5728
G01 X29.4541 Y25.5907
G01 X29.4479 Y25.6071
G01 X29.4410 Y25.6236
G01 X29.4304 Y25.6466
G01 X29.4226 Y25.6619
G01 X29.4128 Y25.6798
G01 X29.3948 Y25.7089
G01 X29.3843 Y25.7246
G01 X29.3736 Y25.7392
G01 X29.3619 Y25.7543
G01 X29.3503 Y25.7682
G01 X29.3385 Y25.7816
G01 X29.3255 Y25.7954
G01 X29.3017 Y25.8184
G01 X29.2883 Y25.8302
G01 X29.2744 Y25.8418
G01 X29.2593 Y25.8535
G01 X29.2447 Y25.8642
G01 X29.2290 Y25.8747
G01 X29.2145 Y25.8839
G01 X29.1926 Y25.8968
G01 X29.1781 Y25.9045
G01 X29.1600 Y25.9135
G01 X29.1445 Y25.9205
G01 X29.1272 Y25.9278
G01 X29.1108 Y25.9340
G01 X29.0918 Y25.9406
G01 X29.0747 Y25.9459
G01 X29.0581 Y25.9504
G01 X29.0398 Y25.9549
G01 X29.0215 Y25.9587
G01 X29.0030 Y25.9619
G01 X28.9859 Y25.9643
G01 X28.9719 Y25.9659
G01 X28.9528 Y25.9675
G01 X28.9348 Y25.9685
G01 X28.9157 Y25.9688
G01 X28.8775 Y25.9678
G01 X28.8400 Y25.9648
G01 X28.8133 Y25.9613
G01 X28.7766 Y25.9548
G01 X28.7573 Y25.9506
G01 X28.7385 Y25.9459
G01 X28.7192 Y25.9404
G01 X28.7018 Y25.9349
G01 X28.6825 Y25.9284
G01 X28.6636 Y25.9212
G01 X28.6458 Y25.9139
G01 X28.6283 Y25.9061
G01 X28.5934 Y25.8888
G01 X28.5598 Y25.8697
G01 X28.5305 Y25.8508
G01 X28.4991 Y25.8281
G01 X28.4834 Y25.8157
G01 X28.4688 Y25.8035
G01 X28.4402 Y25.7774
G01 X28.4260 Y25.7633
G01 X28.4129 Y25.7495
G00 Z1.0000
G00 X29.8187 Y24.6011
G01 F25.00
G01 Z-0.0399
G01 F40.00
G01 X29.8196 Y24.5831
G01 X29.8220 Y24.5665
G01 X29.8235 Y24.5589
G01 X29.8282 Y24.5414
G01 X29.8339 Y24.5260
G01 X29.8416 Y24.5095
G01 X29.8508 Y24.4938
G01 X29.8551 Y24.4874
G01 X29.8662 Y24.4730
G01 X29.8773 Y24.4609
G01 X29.8919 Y24.4477
G01 X29.9053 Y24.4377
G01 X29.9117 Y24.4334
G01 X29.9288 Y24.4237
G01 X29.9424 Y24.4175
G01 X29.9595 Y24.4113
G01 X29.9771 Y24.4067
G01 X29.9847 Y24.4052
G01 X30.0027 Y24.4029
G01 X30.0176 Y24.4022
G01 X30.4014 Y24.4022
G01 X30.4014 Y24.2697
G01 X30.4024 Y24.2501
G01 X30.4053 Y24.2306
G01 X30.4101 Y24.2115
G01 X30.4167 Y24.1930
G01 X30.4251 Y24.1752
G01 X30.4352 Y24.1583
G01 X30.4489 Y24.1403
G01 X30.4601 Y24.1279
G01 X30.4725 Y24.1167
G01 X30.4905 Y24.1030
G01 X30.5101 Y24.0916
G01 X30.5252 Y24.0845
G01 X30.5409 Y24.0788
G01 X30.5628 Y24.0731
G01 X30.5837 Y24.0701
G01 X30.6019 Y24.0692
G01 X30.6186 Y24.0700
G01 X30.6410 Y24.0731
G01 X30.6629 Y24.0788
G01 X30.6786 Y24.0845
G01 X30.6937 Y24.0916
G01 X30.7133 Y24.1030
G01 X30.7313 Y24.1167
G01 X30.7437 Y24.1279
G01 X30.7549 Y24.1403
G01 X30.7686 Y24.1583
G01 X30.7787 Y24.1752
G01 X30.7882 Y24.1958
G01 X30.7937 Y24.2115
G01 X30.7979 Y24.2277
G01 X30.8010 Y24.2471
G01 X30.8024 Y24.2697
G01 X30.8024 Y24.4022
G01 X30.8546 Y24.4023
G01 X30.8712 Y24.4032
G01 X30.8892 Y24.4058
G01 X30.9069 Y24.4101
G01 X30.9126 Y24.4118
G01 X30.9283 Y24.4175
G01 X30.9461 Y24.4259
G01 X30.9630 Y24.4360
G01 X30.9764 Y24.4459
G01 X30.9810 Y24.4497
G01 X30.9954 Y24.4631
G01 X31.0066 Y24.4755
G01 X31.0183 Y24.4913
G01 X31.0284 Y24.5082
G01 X31.0356 Y24.5233
G01 X31.0434 Y24.5445
G01 X31.0485 Y24.5651
G01 X31.0513 Y24.5860
G01 X31.0521 Y24.6027
G01 X31.0513 Y24.6194
G01 X31.0482 Y24.6418
G01 X31.0434 Y24.6609
G01 X31.0368 Y24.6794
G01 X31.0269 Y24.6998
G01 X31.0183 Y24.7141
G01 X31.0066 Y24.7299
G01 X30.9934 Y24.7445
G01 X30.9810 Y24.7557
G01 X30.9764 Y24.7595
G01 X30.9617 Y24.7702
G01 X30.9461 Y24.7795
G01 X30.9310 Y24.7867
G01 X30.9255 Y24.7890
G01 X30.9069 Y24.7953
G01 X30.8907 Y24.7993
G01 X30.8727 Y24.8020
G01 X30.8531 Y24.8032
G01 X30.8024 Y24.8032
G01 X30.8024 Y24.9357
G01 X30.8015 Y24.9539
G01 X30.7990 Y24.9719
G01 X30.7979 Y24.9777
G01 X30.7937 Y24.9939
G01 X30.7877 Y25.0110
G01 X30.7787 Y25.0302
G01 X30.7686 Y25.0471
G01 X30.7569 Y25.0629
G01 X30.7437 Y25.0775
G01 X30.7291 Y25.0907
G01 X30.7133 Y25.1024
G01 X30.6964 Y25.1125
G01 X30.6772 Y25.1215
G01 X30.6601 Y25.1275
G01 X30.6439 Y25.1317
G01 X30.6215 Y25.1352
G01 X30.5989 Y25.1361
G01 X30.5823 Y25.1352
G01 X30.5657 Y25.1328
G01 X30.5437 Y25.1275
G01 X30.5225 Y25.1197
G01 X30.5074 Y25.1125
G01 X30.4930 Y25.1040
G01 X30.4747 Y25.0907
G01 X30.4601 Y25.0775
G01 X30.4489 Y25.0651
G01 X30.4352 Y25.0471
G01 X30.4251 Y25.0302
G01 X30.4179 Y25.0151
G01 X30.4156 Y25.0096
G01 X30.4093 Y24.9910
G01 X30.4053 Y24.9748
G01 X30.4028 Y24.9583
G01 X30.4015 Y24.9387
G01 X30.4014 Y24.8032
G01 X30.2849 Y24.8032
G01 X30.5449 Y25.7132
G01 X30.5498 Y25.7353
G01 X30.5519 Y25.7519
G01 X30.5525 Y25.7716
G01 X30.5513 Y25.7912
G01 X30.5486 Y25.8077
G01 X30.5438 Y25.8267
G01 X30.5420 Y25.8324
G01 X30.5360 Y25.8480
G01 X30.5280 Y25.8643
G01 X30.5186 Y25.8799
G01 X30.5152 Y25.8848
G01 X30.5050 Y25.8980
G01 X30.4915 Y25.9123
G01 X30.4767 Y25.9253
G01 X30.4632 Y25.9351
G01 X30.4463 Y25.9452
G01 X30.4410 Y25.9479
G01 X30.4258 Y25.9547
G01 X30.4072 Y25.9611
G01 X30.3880 Y25.9655
G01 X30.3685 Y25.9681
G01 X30.3488 Y25.9687
G01 X30.3292 Y25.9675
G01 X30.3098 Y25.9643
G01 X30.2894 Y25.9587
G01 X30.2724 Y25.9522
G01 X30.2547 Y25.9435
G01 X30.2380 Y25.9332
G01 X30.2224 Y25.9212
G01 X30.2081 Y25.9077
G01 X30.1951 Y25.8929
G01 X30.1836 Y25.8770
G01 X30.1725 Y25.8572
G01 X30.1657 Y25.8420
G01 X30.1593 Y25.8234
G01 X29.8263 Y24.6578
G01 X29.8225 Y24.6418
G01 X29.8198 Y24.6238
G01 X29.8192 Y24.6176
G01 X29.8187 Y24.6011
G00 Z1.0000
G00 X30.4618 Y27.8032
G01 F25.00
G01 Z-0.0399
G01 F40.00
G01 X30.7553 Y27.8032
G01 X30.7553 Y28.0255
G01 X30.7545 Y28.0387
G01 X30.7517 Y28.0587
G01 X30.7471 Y28.0782
G01 X30.7430 Y28.0910
G01 X30.7384 Y28.1031
G01 X30.7328 Y28.1152
G01 X30.7233 Y28.1323
G01 X30.7119 Y28.1490
G01 X30.7034 Y28.1595
G01 X30.6944 Y28.1694
G01 X30.6852 Y28.1783
G01 X30.6749 Y28.1871
G01 X30.6646 Y28.1949
G01 X30.6532 Y28.2024
G01 X30.6358 Y28.2122
G01 X30.6237 Y28.2178
G01 X30.6116 Y28.2224
G01 X30.5917 Y28.2284
G01 X30.5729 Y28.2322
G01 X30.5593 Y28.2339
G01 X30.5461 Y28.2347
G01 X30.5265 Y28.2344
G01 X30.5063 Y28.2322
G01 X30.4936 Y28.2299
G01 X30.4804 Y28.2265
G01 X30.4612 Y28.2201
G01 X30.4434 Y28.2122
G01 X30.4263 Y28.2027
G01 X30.4096 Y28.1913
G01 X30.3991 Y28.1828
G01 X30.3892 Y28.1738
G01 X30.3758 Y28.1595
G01 X30.3637 Y28.1440
G01 X30.3526 Y28.1268
G01 X30.3436 Y28.1093
G01 X30.3362 Y28.0910
G01 X30.3302 Y28.0711
G01 X30.3264 Y28.0523
G01 X30.3242 Y28.0321
G01 X30.3238 Y28.0174
G01 X30.3238 Y27.9376
G01 X30.3245 Y27.9220
G01 X30.3256 Y27.9136
G01 X30.3288 Y27.8998
G01 X30.3315 Y27.8911
G01 X30.3346 Y27.8835
G01 X30.3389 Y27.8744
G01 X30.3427 Y27.8676
G01 X30.3482 Y27.8592
G01 X30.3565 Y27.8487
G01 X30.3626 Y27.8421
G01 X30.3726 Y27.8331
G01 X30.3797 Y27.8277
G01 X30.3881 Y27.8222
G01 X30.3949 Y27.8184
G01 X30.4040 Y27.8141
G01 X30.4116 Y27.8110
G01 X30.4203 Y27.8083
G01 X30.4339 Y27.8052
G01 X30.4425 Y27.8040
G01 X30.4618 Y27.8032
G00 Z1.0000
G00 X29.9331 Y28.1307
G01 F25.00
G01 Z-0.0399
G01 F40.00
G01 X29.9297 Y28.1107
G01 X29.9273 Y28.0927
G01 X29.9253 Y28.0740
G01 X29.9239 Y28.0540
G01 X29.9228 Y28.0195
G01 X29.9231 Y27.9209
G01 X29.9252 Y27.8859
G01 X29.9282 Y27.8607
G01 X29.9312 Y27.8416
G01 X29.9338 Y27.8284
G01 X29.9417 Y27.7952
G01 X29.9473 Y27.7762
G01 X29.9527 Y27.7599
G01 X29.9591 Y27.7423
G01 X29.9660 Y27.7256
G01 X29.9736 Y27.7088
G01 X29.9811 Y27.6933
G01 X29.9902 Y27.6763
G01 X29.9993 Y27.6607
G01 X30.0185 Y27.6310
G01 X30.0298 Y27.6154
G01 X30.0406 Y27.6015
G01 X30.0530 Y27.5867
G01 X30.0642 Y27.5740
G01 X30.0772 Y27.5604
G01 X30.0907 Y27.5473
G01 X30.1045 Y27.5348
G01 X30.1174 Y27.5238
G01 X30.1326 Y27.5118
G01 X30.1463 Y27.5017
G01 X30.1621 Y27.4909
G01 X30.1766 Y27.4816
G01 X30.1920 Y27.4724
G01 X30.2078 Y27.4637
G01 X30.2251 Y27.4551
G01 X30.2404 Y27.4480
G01 X30.2639 Y27.4382
G01 X30.2804 Y27.4322
G01 X30.2975 Y27.4265
G01 X30.3157 Y27.4212
G01 X30.3323 Y27.4170
G01 X30.3611 Y27.4109
G01 X30.3819 Y27.4076
G01 X30.4064 Y27.4047
G01 X30.4353 Y27.4028
G01 X30.4563 Y27.4022
G01 X30.7099 Y27.4022
G01 X30.7018 Y27.3861
G01 X30.6914 Y27.3672
G01 X30.6791 Y27.3475
G01 X30.6729 Y27.3383
G01 X30.6662 Y27.3288
G01 X30.6529 Y27.3114
G01 X30.6457 Y27.3027
G01 X30.6305 Y27.2855
G01 X30.6070 Y27.2620
G01 X30.5898 Y27.2468
G01 X30.5811 Y27.2396
G01 X30.5637 Y27.2263
G01 X30.5542 Y27.2196
G01 X30.5450 Y27.2134
G01 X30.5253 Y27.2011
G01 X30.5162 Y27.1959
G01 X30.4958 Y27.1853
G01 X30.4762 Y27.1761
G01 X30.4655 Y27.1717
G01 X30.4548 Y27.1674
G01 X30.4335 Y27.1599
G01 X30.4124 Y27.1536
G01 X30.4013 Y27.1508
G01 X30.3792 Y27.1458
G01 X30.3683 Y27.1439
G01 X30.3573 Y27.1421
G01 X30.3342 Y27.1393
G01 X30.3126 Y27.1378
G01 X30.2858 Y27.1371
G01 X30.2662 Y27.1358
G01 X30.2483 Y27.1328
G01 X30.2292 Y27.1278
G01 X30.2108 Y27.1209
G01 X30.1905 Y27.1108
G01 X30.1764 Y27.1020
G01 X30.1630 Y27.0919
G01 X30.1473 Y27.0777
G01 X30.1333 Y27.0619
G01 X30.1234 Y27.0485
G01 X30.1202 Y27.0435
G01 X30.1105 Y27.0263
G01 X30.1037 Y27.0111
G01 X30.0973 Y26.9925
G01 X30.0927 Y26.9734
G01 X30.0901 Y26.9539
G01 X30.0893 Y26.9342
G01 X30.0903 Y26.9175
G01 X30.0910 Y26.9116
G01 X30.0944 Y26.8923
G01 X30.0987 Y26.8761
G01 X30.1056 Y26.8577
G01 X30.1142 Y26.8400
G01 X30.1237 Y26.8245
G01 X30.1346 Y26.8099
G01 X30.1384 Y26.8054
G01 X30.1498 Y26.7932
G01 X30.1646 Y26.7802
G01 X30.1805 Y26.7686
G01 X30.1949 Y26.7602
G01 X30.2002 Y26.7574
G01 X30.2168 Y26.7500
G01 X30.2340 Y26.7442
G01 X30.2502 Y26.7402
G01 X30.2726 Y26.7370
G01 X30.2908 Y26.7362
G01 X30.3091 Y26.7365
G01 X30.3327 Y26.7373
G01 X30.3554 Y26.7387
G01 X30.3765 Y26.7406
G01 X30.4122 Y26.7450
G01 X30.4371 Y26.7489
G01 X30.4590 Y26.7529
G01 X30.4952 Y26.7610
G01 X30.5191 Y26.7671
G01 X30.5553 Y26.7779
G01 X30.5754 Y26.7847
G01 X30.5998 Y26.7936
G01 X30.6328 Y26.8070
G01 X30.6534 Y26.8162
G01 X30.6728 Y26.8255
G01 X30.6934 Y26.8360
G01 X30.7135 Y26.8469
G01 X30.7454 Y26.8658
G01 X30.7672 Y26.8796
G01 X30.8003 Y26.9026
G01 X30.8174 Y26.9154
G01 X30.8343 Y26.9287
G01 X30.8507 Y26.9423
G01 X30.8775 Y26.9660
G01 X30.8941 Y26.9817
G01 X30.9082 Y26.9957
G01 X30.9230 Y27.0112
G01 X30.9377 Y27.0274
G01 X30.9507 Y27.0424
G01 X30.9643 Y27.0588
G01 X30.9771 Y27.0751
G01 X30.9899 Y27.0922
G01 X31.0129 Y27.1253
G01 X31.0252 Y27.1446
G01 X31.0373 Y27.1645
G01 X31.0461 Y27.1798
G01 X31.0565 Y27.1991
G01 X31.0670 Y27.2197
G01 X31.0763 Y27.2391
G01 X31.0919 Y27.2751
G01 X31.1006 Y27.2971
G01 X31.1076 Y27.3165
G01 X31.1144 Y27.3365
G01 X31.1206 Y27.3565
G01 X31.1264 Y27.3771
G01 X31.1314 Y27.3967
G01 X31.1361 Y27.4170
G01 X31.1405 Y27.4379
G01 X31.1469 Y27.4761
G01 X31.1519 Y27.5160
G01 X31.1543 Y27.5432
G01 X31.1560 Y27.5834
G01 X31.1563 Y28.0221
G01 X31.1553 Y28.0540
G01 X31.1535 Y28.0783
G01 X31.1515 Y28.0961
G01 X31.1487 Y28.1162
G01 X31.1456 Y28.1338
G01 X31.1414 Y28.1540
G01 X31.1322 Y28.1897
G01 X31.1266 Y28.2081
G01 X31.1207 Y28.2256
G01 X31.1141 Y28.2435
G01 X31.1066 Y28.2617
G01 X31.0993 Y28.2782
G01 X31.0905 Y28.2963
G01 X31.0819 Y28.3128
G01 X31.0725 Y28.3295
G01 X31.0625 Y28.3460
G01 X31.0528 Y28.3609
G01 X31.0419 Y28.3769
G01 X31.0297 Y28.3934
G01 X31.0101 Y28.4178
G01 X30.9967 Y28.4330
G01 X30.9810 Y28.4498
G01 X30.9664 Y28.4643
G01 X30.9434 Y28.4852
G01 X30.9285 Y28.4977
G01 X30.9132 Y28.5097
G01 X30.8975 Y28.5213
G01 X30.8788 Y28.5341
G01 X30.8613 Y28.5452
G01 X30.8348 Y28.5605
G01 X30.8180 Y28.5694
G01 X30.7988 Y28.5787
G01 X30.7769 Y28.5883
G01 X30.7590 Y28.5954
G01 X30.7297 Y28.6057
G01 X30.7103 Y28.6116
G01 X30.6882 Y28.6175
G01 X30.6677 Y28.6223
G01 X30.6380 Y28.6279
G01 X30.6167 Y28.6309
G01 X30.5946 Y28.6333
G01 X30.5746 Y28.6347
G01 X30.5427 Y28.6357
G01 X30.5227 Y28.6355
G01 X30.5037 Y28.6347
G01 X30.4794 Y28.6328
G01 X30.4491 Y28.6291
G01 X30.4286 Y28.6257
G01 X30.4115 Y28.6223
G01 X30.3903 Y28.6174
G01 X30.3680 Y28.6114
G01 X30.3495 Y28.6057
G01 X30.3202 Y28.5954
G01 X30.3013 Y28.5879
G01 X30.2804 Y28.5787
G01 X30.2623 Y28.5699
G01 X30.2451 Y28.5609
G01 X30.2173 Y28.5448
G01 X30.2011 Y28.5345
G01 X30.1817 Y28.5213
G01 X30.1660 Y28.5097
G01 X30.1514 Y28.4982
G01 X30.1358 Y28.4852
G01 X30.1128 Y28.4643
G01 X30.0982 Y28.4498
G01 X30.0825 Y28.4330
G01 X30.0691 Y28.4178
G01 X30.0495 Y28.3934
G01 X30.0373 Y28.3769
G01 X30.0245 Y28.3582
G01 X30.0138 Y28.3413
G01 X30.0040 Y28.3248
G01 X29.9892 Y28.2974
G01 X29.9799 Y28.2782
G01 X29.9707 Y28.2573
G01 X29.9635 Y28.2393
G01 X29.9570 Y28.2213
G01 X29.9472 Y28.1906
G01 X29.9422 Y28.1721
G01 X29.9378 Y28.1540
G01 X29.9331 Y28.1307
G00 Z1.0000
G00 X16.7690 Y24.1330
G01 F25.00
G01 Z-0.0399
G01 F40.00
G01 X16.7690 Y24.1270
G01 X16.7724 Y24.0593
G01 X16.7828 Y23.9893
G01 X16.8000 Y23.9207
G01 X16.8238 Y23.8540
G01 X16.8540 Y23.7901
G01 X16.8904 Y23.7294
G01 X16.9326 Y23.6725
G01 X16.9801 Y23.6201
G01 X17.0325 Y23.5726
G01 X17.0894 Y23.5304
G01 X17.1501 Y23.4940
G01 X17.2140 Y23.4638
G01 X17.2807 Y23.4400
G01 X17.3493 Y23.4228
G01 X17.4193 Y23.4124
G01 X17.4900 Y23.4089
G01 X17.5607 Y23.4124
G01 X17.6307 Y23.4228
G01 X17.6993 Y23.4400
G01 X17.7660 Y23.4638
G01 X17.8299 Y23.4940
G01 X17.8906 Y23.5304
G01 X17.9475 Y23.5726
G01 X17.9999 Y23.6201
G01 X18.0474 Y23.6725
G01 X18.0896 Y23.7294
G01 X18.1260 Y23.7901
G01 X18.1562 Y23.8540
G01 X18.1800 Y23.9207
G01 X18.1972 Y23.9893
G01 X18.2076 Y24.0593
G01 X18.2111 Y24.1300
G01 X18.2076 Y24.2007
G01 X18.1972 Y24.2707
G01 X18.1800 Y24.3393
G01 X18.1562 Y24.4060
G01 X18.1260 Y24.4699
G01 X18.0896 Y24.5306
G01 X18.0474 Y24.5875
G01 X17.9999 Y24.6399
G01 X17.9475 Y24.6874
G01 X17.8906 Y24.7296
G01 X17.8299 Y24.7660
G01 X17.7660 Y24.7962
G01 X17.6993 Y24.8200
G01 X17.6307 Y24.8372
G01 X17.5607 Y24.8476
G01 X17.4900 Y24.8511
G01 X17.4193 Y24.8476
G01 X17.3493 Y24.8372
G01 X17.2807 Y24.8200
G01 X17.2140 Y24.7962
G01 X17.1501 Y24.7660
G01 X17.0894 Y24.7296
G01 X17.0325 Y24.6874
G01 X16.9801 Y24.6399
G01 X16.9326 Y24.5875
G01 X16.8904 Y24.5306
G01 X16.8540 Y24.4699
G01 X16.8238 Y24.4060
G01 X16.8000 Y24.3393
G01 X16.7828 Y24.2707
G01 X16.7724 Y24.2007
G01 X16.7690 Y24.1330
G00 Z1.0000
G00 X14.3810 Y24.5720
G01 F25.00
G01 Z-0.0399
G01 F40.00
G01 X14.3504 Y24.5306
G01 X14.3140 Y24.4699
G01 X14.2838 Y24.4060
G01 X14.2595 Y24.3379
G01 X14.2428 Y24.2707
G01 X14.2324 Y24.2007
G01 X14.2289 Y24.1300
G01 X14.2325 Y24.0578
G01 X14.2428 Y23.9893
G01 X14.2600 Y23.9207
G01 X14.2838 Y23.8540
G01 X14.3140 Y23.7901
G01 X14.3504 Y23.7294
G01 X14.3926 Y23.6725
G01 X14.4401 Y23.6201
G01 X14.4937 Y23.5717
G01 X14.5494 Y23.5304
G01 X14.6101 Y23.4940
G01 X14.6740 Y23.4638
G01 X14.7407 Y23.4400
G01 X14.8093 Y23.4228
G01 X14.8793 Y23.4124
G01 X14.9500 Y23.4089
G01 X15.0207 Y23.4124
G01 X15.0907 Y23.4228
G01 X15.1593 Y23.4400
G01 X15.2260 Y23.4638
G01 X15.2899 Y23.4940
G01 X15.3506 Y23.5304
G01 X15.4075 Y23.5726
G01 X15.4599 Y23.6201
G01 X15.5083 Y23.6737
G01 X15.5496 Y23.7294
G01 X15.5845 Y23.7875
G01 X15.5873 Y23.7927
G01 X15.6162 Y23.8540
G01 X15.6400 Y23.9207
G01 X15.6566 Y23.9864
G01 X15.6578 Y23.9923
G01 X15.6678 Y24.0608
G01 X15.6711 Y24.1300
G01 X15.6676 Y24.2007
G01 X15.6572 Y24.2707
G01 X15.6400 Y24.3393
G01 X15.6162 Y24.4060
G01 X15.5860 Y24.4699
G01 X15.5496 Y24.5306
G01 X15.5190 Y24.5720
G01 X15.5190 Y25.3141
G01 X15.5330 Y25.3271
G01 X15.5843 Y25.3836
G01 X15.5881 Y25.3882
G01 X15.6344 Y25.4507
G01 X15.6766 Y25.5213
G01 X15.7104 Y25.5930
G01 X15.7376 Y25.6691
G01 X15.7573 Y25.7474
G01 X15.7690 Y25.8258
G01 X15.7731 Y25.9080
G01 X15.7731 Y27.4320
G01 X15.7691 Y27.5127
G01 X15.7578 Y27.5896
G01 X15.7566 Y27.5955
G01 X15.7376 Y27.6709
G01 X15.7104 Y27.7470
G01 X15.6759 Y27.8200
G01 X15.6360 Y27.8868
G01 X15.6327 Y27.8917
G01 X15.5881 Y27.9518
G01 X15.5843 Y27.9564
G01 X15.5320 Y28.0140
G01 X15.4722 Y28.0683
G01 X15.4073 Y28.1164
G01 X15.3406 Y28.1564
G01 X15.3353 Y28.1592
G01 X15.2677 Y28.1912
G01 X15.2622 Y28.1935
G01 X15.1889 Y28.2196
G01 X15.1106 Y28.2393
G01 X15.0307 Y28.2511
G01 X14.9500 Y28.2551
G01 X14.8693 Y28.2511
G01 X14.7894 Y28.2393
G01 X14.7111 Y28.2196
G01 X14.6350 Y28.1924
G01 X14.5620 Y28.1579
G01 X14.4927 Y28.1164
G01 X14.4278 Y28.0683
G01 X14.3680 Y28.0140
G01 X14.3137 Y27.9542
G01 X14.2656 Y27.8893
G01 X14.2241 Y27.8200
G01 X14.1896 Y27.7470
G01 X14.1624 Y27.6709
G01 X14.1427 Y27.5926
G01 X14.1309 Y27.5127
G01 X14.1269 Y27.4320
G01 X14.1269 Y25.9080
G01 X14.1308 Y25.8288
G01 X14.1427 Y25.7474
G01 X14.1624 Y25.6691
G01 X14.1896 Y25.5930
G01 X14.2228 Y25.5227
G01 X14.2256 Y25.5174
G01 X14.2656 Y25.4507
G01 X14.3119 Y25.3882
G01 X14.3157 Y25.3836
G01 X14.3670 Y25.3271
G01 X14.3810 Y25.3141
G01 X14.3810 Y24.5720
G00 Z1.0000
G00 X11.8410 Y23.6880
G01 F25.00
G01 Z-0.0399
G01 F40.00
G01 X11.8410 Y22.1590
G01 X7.4159 Y22.1590
G01 X7.4029 Y22.1730
G01 X7.3464 Y22.2243
G01 X7.3418 Y22.2281
G01 X7.2793 Y22.2744
G01 X7.2087 Y22.3166
G01 X7.1370 Y22.3504
G01 X7.0609 Y22.3776
G01 X6.9826 Y22.3973
G01 X6.9042 Y22.4090
G01 X6.8220 Y22.4131
G01 X5.2980 Y22.4131
G01 X5.2173 Y22.4091
G01 X5.1374 Y22.3973
G01 X5.0619 Y22.3784
G01 X5.0562 Y22.3767
G01 X4.9858 Y22.3515
G01 X4.9803 Y22.3492
G01 X4.9100 Y22.3159
G01 X4.8432 Y22.2760
G01 X4.8383 Y22.2727
G01 X4.7758 Y22.2263
G01 X4.7160 Y22.1720
G01 X4.6617 Y22.1122
G01 X4.6136 Y22.0473
G01 X4.5721 Y21.9780
G01 X4.5388 Y21.9077
G01 X4.5365 Y21.9022
G01 X4.5113 Y21.8318
G01 X4.5096 Y21.8261
G01 X4.4907 Y21.7506
G01 X4.4792 Y21.6736
G01 X4.4787 Y21.6677
G01 X4.4749 Y21.5900
G01 X4.4789 Y21.5093
G01 X4.4907 Y21.4294
G01 X4.5108 Y21.3497
G01 X4.5376 Y21.2750
G01 X4.5708 Y21.2047
G01 X4.5736 Y21.1994
G01 X4.6120 Y21.1352
G01 X4.6153 Y21.1303
G01 X4.6617 Y21.0678
G01 X4.7160 Y21.0080
G01 X4.7758 Y20.9537
G01 X4.8383 Y20.9073
G01 X4.8432 Y20.9040
G01 X4.9074 Y20.8656
G01 X4.9127 Y20.8628
G01 X4.9830 Y20.8296
G01 X5.0591 Y20.8024
G01 X5.1345 Y20.7834
G01 X5.1404 Y20.7822
G01 X5.2173 Y20.7709
G01 X5.2965 Y20.7669
G01 X6.8220 Y20.7669
G01 X6.9042 Y20.7710
G01 X6.9826 Y20.7827
G01 X7.0609 Y20.8024
G01 X7.1370 Y20.8296
G01 X7.2087 Y20.8634
G01 X7.2793 Y20.9056
G01 X7.3418 Y20.9519
G01 X7.3464 Y20.9557
G01 X7.4029 Y21.0070
G01 X7.4159 Y21.0210
G01 X19.4610 Y21.0210
G01 X19.4610 Y14.5390
G01 X17.9408 Y14.5390
G01 X17.8043 Y14.6754
G01 X17.7985 Y14.6800
G01 X17.7908 Y14.6846
G01 X17.7840 Y14.6876
G01 X17.7754 Y14.6899
G01 X17.7695 Y14.6908
G01 X17.7635 Y14.6911
G01 X17.2165 Y14.6911
G01 X17.2075 Y14.6904
G01 X17.1988 Y14.6885
G01 X17.1919 Y14.6859
G01 X17.1852 Y14.6825
G01 X17.1791 Y14.6783
G01 X17.1735 Y14.6733
G01 X16.7867 Y14.2865
G01 X16.7800 Y14.2785
G01 X16.7768 Y14.2735
G01 X16.7741 Y14.2681
G01 X16.7720 Y14.2626
G01 X16.7704 Y14.2568
G01 X16.7694 Y14.2510
G01 X16.7689 Y14.2435
G01 X16.7689 Y13.6965
G01 X16.7694 Y13.6890
G01 X16.7715 Y13.6788
G01 X16.7747 Y13.6705
G01 X16.7800 Y13.6615
G01 X16.7856 Y13.6546
G01 X17.1735 Y13.2667
G01 X17.1815 Y13.2600
G01 X17.1865 Y13.2568
G01 X17.1919 Y13.2541
G01 X17.2017 Y13.2507
G01 X17.2075 Y13.2496
G01 X17.2135 Y13.2490
G01 X17.7635 Y13.2489
G01 X17.7695 Y13.2492
G01 X17.7754 Y13.2501
G01 X17.7840 Y13.2524
G01 X17.7908 Y13.2554
G01 X17.7985 Y13.2600
G01 X17.8043 Y13.2646
G01 X17.9408 Y13.4010
G01 X20.0300 Y13.4010
G01 X20.0858 Y13.4038
G01 X20.1410 Y13.4120
G01 X20.1923 Y13.4248
G01 X20.1980 Y13.4265
G01 X20.2477 Y13.4444
G01 X20.2982 Y13.4682
G01 X20.3436 Y13.4953
G01 X20.3485 Y13.4986
G01 X20.3921 Y13.5312
G01 X20.4323 Y13.5677
G01 X20.4679 Y13.6068
G01 X20.4716 Y13.6114
G01 X20.5031 Y13.6539
G01 X20.5303 Y13.6992
G01 X20.5331 Y13.7045
G01 X20.5544 Y13.7495
G01 X20.5567 Y13.7551
G01 X20.5745 Y13.8048
G01 X20.5880 Y13.8590
G01 X20.5962 Y13.9142
G01 X20.5989 Y13.9685
G01 X20.5990 Y21.0210
G01 X22.0473 Y21.0210
G01 X22.2336 Y20.8348
G01 X22.2393 Y20.8300
G01 X22.2455 Y20.8260
G01 X22.2536 Y20.8222
G01 X22.2607 Y20.8199
G01 X22.2680 Y20.8186
G01 X22.2754 Y20.8181
G01 X22.8646 Y20.8181
G01 X22.8750 Y20.8190
G01 X22.8836 Y20.8212
G01 X22.8905 Y20.8239
G01 X22.8971 Y20.8275
G01 X22.9031 Y20.8319
G01 X22.9075 Y20.8359
G01 X23.3241 Y21.2525
G01 X23.3281 Y21.2569
G01 X23.3317 Y21.2617
G01 X23.3347 Y21.2668
G01 X23.3373 Y21.2722
G01 X23.3393 Y21.2778
G01 X23.3407 Y21.2836
G01 X23.3416 Y21.2895
G01 X23.3419 Y21.2954
G01 X23.3419 Y21.8861
G01 X23.3407 Y21.8964
G01 X23.3378 Y21.9064
G01 X23.3333 Y21.9158
G01 X23.3272 Y21.9242
G01 X22.9064 Y22.3452
G01 X22.8983 Y22.3517
G01 X22.8932 Y22.3547
G01 X22.8878 Y22.3573
G01 X22.8822 Y22.3593
G01 X22.8764 Y22.3607
G01 X22.8661 Y22.3619
G01 X22.2754 Y22.3619
G01 X22.2680 Y22.3614
G01 X22.2607 Y22.3601
G01 X22.2536 Y22.3578
G01 X22.2468 Y22.3547
G01 X22.2405 Y22.3508
G01 X22.2336 Y22.3452
G01 X22.0473 Y22.1590
G01 X12.9790 Y22.1590
G01 X12.9790 Y23.6880
G01 X13.0096 Y23.7294
G01 X13.0460 Y23.7901
G01 X13.0762 Y23.8540
G01 X13.0991 Y23.9178
G01 X13.1008 Y23.9235
G01 X13.1166 Y23.9864
G01 X13.1178 Y23.9923
G01 X13.1276 Y24.0593
G01 X13.1311 Y24.1300
G01 X13.1276 Y24.2007
G01 X13.1178 Y24.2677
G01 X13.1166 Y24.2736
G01 X13.1008 Y24.3365
G01 X13.0991 Y24.3422
G01 X13.0762 Y24.4060
G01 X13.0460 Y24.4699
G01 X13.0096 Y24.5306
G01 X12.9683 Y24.5863
G01 X12.9199 Y24.6399
G01 X12.8675 Y24.6874
G01 X12.8106 Y24.7296
G01 X12.7499 Y24.7660
G01 X12.6860 Y24.7962
G01 X12.6193 Y24.8200
G01 X12.5507 Y24.8372
G01 X12.4807 Y24.8476
G01 X12.4100 Y24.8511
G01 X12.3393 Y24.8476
G01 X12.2693 Y24.8372
G01 X12.2007 Y24.8200
G01 X12.1340 Y24.7962
G01 X12.0701 Y24.7660
G01 X12.0094 Y24.7296
G01 X11.9537 Y24.6883
G01 X11.9001 Y24.6399
G01 X11.8526 Y24.5875
G01 X11.8104 Y24.5306
G01 X11.7740 Y24.4699
G01 X11.7438 Y24.4060
G01 X11.7200 Y24.3393
G01 X11.7028 Y24.2707
G01 X11.6925 Y24.2022
G01 X11.6889 Y24.1300
G01 X11.6924 Y24.0593
G01 X11.7028 Y23.9893
G01 X11.7195 Y23.9221
G01 X11.7438 Y23.8540
G01 X11.7740 Y23.7901
G01 X11.8104 Y23.7294
G01 X11.8410 Y23.6880
G00 Z1.0000
G00 X9.1490 Y24.1330
G01 F25.00
G01 Z-0.0399
G01 F40.00
G01 X9.1490 Y24.1270
G01 X9.1524 Y24.0593
G01 X9.1628 Y23.9893
G01 X9.1800 Y23.9207
G01 X9.2038 Y23.8540
G01 X9.2340 Y23.7901
G01 X9.2704 Y23.7294
G01 X9.3126 Y23.6725
G01 X9.3601 Y23.6201
G01 X9.4125 Y23.5726
G01 X9.4694 Y23.5304
G01 X9.5301 Y23.4940
G01 X9.5940 Y23.4638
G01 X9.6607 Y23.4400
G01 X9.7293 Y23.4228
G01 X9.7993 Y23.4124
G01 X9.8700 Y23.4089
G01 X9.9407 Y23.4124
G01 X10.0107 Y23.4228
G01 X10.0793 Y23.4400
G01 X10.1460 Y23.4638
G01 X10.2099 Y23.4940
G01 X10.2706 Y23.5304
G01 X10.3275 Y23.5726
G01 X10.3799 Y23.6201
G01 X10.4274 Y23.6725
G01 X10.4696 Y23.7294
G01 X10.5060 Y23.7901
G01 X10.5362 Y23.8540
G01 X10.5600 Y23.9207
G01 X10.5772 Y23.9893
G01 X10.5876 Y24.0593
G01 X10.5911 Y24.1300
G01 X10.5876 Y24.2007
G01 X10.5772 Y24.2707
G01 X10.5600 Y24.3393
G01 X10.5362 Y24.4060
G01 X10.5060 Y24.4699
G01 X10.4696 Y24.5306
G01 X10.4274 Y24.5875
G01 X10.3799 Y24.6399
G01 X10.3275 Y24.6874
G01 X10.2706 Y24.7296
G01 X10.2099 Y24.7660
G01 X10.1460 Y24.7962
G01 X10.0793 Y24.8200
G01 X10.0107 Y24.8372
G01 X9.9407 Y24.8476
G01 X9.8700 Y24.8511
G01 X9.7993 Y24.8476
G01 X9.7293 Y24.8372
G01 X9.6607 Y24.8200
G01 X9.5940 Y24.7962
G01 X9.5301 Y24.7660
G01 X9.4694 Y24.7296
G01 X9.4125 Y24.6874
G01 X9.3601 Y24.6399
G01 X9.3126 Y24.5875
G01 X9.2704 Y24.5306
G01 X9.2340 Y24.4699
G01 X9.2038 Y24.4060
G01 X9.1800 Y24.3393
G01 X9.1628 Y24.2707
G01 X9.1524 Y24.2007
G01 X9.1490 Y24.1330
G00 Z1.0000
G00 X33.8122 Y0.1878
G01 F25.00
G01 Z-0.0399
G01 F40.00
G01 X33.8122 Y31.8122
G01 X0.1878 Y31.8122
G01 X0.1878 Y0.1878
G01 X33.8122 Y0.1878
G00 Z1.0000
G00 X34.1877 Y-0.0030
G01 F25.00
G01 Z-0.0399
G01 F40.00
G01 X34.1878 Y32.0000
G01 X34.1869 Y32.0184
G01 X34.1842 Y32.0366
G01 X34.1797 Y32.0545
G01 X34.1735 Y32.0719
G01 X34.1656 Y32.0885
G01 X34.1561 Y32.1043
G01 X34.1451 Y32.1191
G01 X34.1317 Y32.1338
G01 X34.1191 Y32.1451
G01 X34.1043 Y32.1561
G01 X34.0885 Y32.1656
G01 X34.0719 Y32.1735
G01 X34.0545 Y32.1797
G01 X34.0366 Y32.1842
G01 X34.0184 Y32.1869
G01 X34.0000 Y32.1878
G01 X0.0000 Y32.1878
G01 X-0.0184 Y32.1869
G01 X-0.0366 Y32.1842
G01 X-0.0545 Y32.1797
G01 X-0.0719 Y32.1735
G01 X-0.0885 Y32.1656
G01 X-0.1043 Y32.1561
G01 X-0.1191 Y32.1451
G01 X-0.1338 Y32.1317
G01 X-0.1451 Y32.1191
G01 X-0.1561 Y32.1043
G01 X-0.1656 Y32.0885
G01 X-0.1735 Y32.0719
G01 X-0.1797 Y32.0545
G01 X-0.1842 Y32.0366
G01 X-0.1869 Y32.0184
G01 X-0.1878 Y32.0000
G01 X-0.1878 Y0.0000
G01 X-0.1869 Y-0.0184
G01 X-0.1842 Y-0.0366
G01 X-0.1797 Y-0.0545
G01 X-0.1735 Y-0.0719
G01 X-0.1656 Y-0.0885
G01 X-0.1561 Y-0.1043
G01 X-0.1451 Y-0.1191
G01 X-0.1317 Y-0.1338
G01 X-0.1191 Y-0.1451
G01 X-0.1043 Y-0.1561
G01 X-0.0885 Y-0.1656
G01 X-0.0719 Y-0.1735
G01 X-0.0545 Y-0.1797
G01 X-0.0366 Y-0.1842
G01 X-0.0184 Y-0.1869
G01 X0.0000 Y-0.1878
G01 X34.0000 Y-0.1878
G01 X34.0184 Y-0.1869
G01 X34.0366 Y-0.1842
G01 X34.0545 Y-0.1797
G01 X34.0719 Y-0.1735
G01 X34.0885 Y-0.1656
G01 X34.1043 Y-0.1561
G01 X34.1191 Y-0.1451
G01 X34.1328 Y-0.1328
G01 X34.1451 Y-0.1191
G01 X34.1561 Y-0.1043
G01 X34.1656 Y-0.0885
G01 X34.1735 Y-0.0719
G01 X34.1797 Y-0.0545
G01 X34.1842 Y-0.0366
G01 X34.1869 Y-0.0184
G01 X34.1877 Y-0.0030
G00 Z1.0000
M05
G00 Z1.0000
G00 Z15.00


